/* XPM */
static char *result[] = {
/* columns rows colors chars-per-pixel */
"192 64 256 2 ",
"   c #297E06280E77",
".  c #2A6E09F911CD",
"X  c #33CF0AD61344",
"o  c #3B4F0AB3142C",
"O  c #39CC06B1115C",
"+  c #3C2214DB1AFE",
"@  c #392B06020E02",
"#  c #14B83A350AA1",
"$  c #11313A4605AC",
"%  c #0BAD147C3A83",
"&  c #1A8A25CD3CB0",
"*  c #2815340239A3",
"=  c #289434B13B62",
"-  c #1F0E22530FDE",
";  c #489D03710881",
":  c #5431012F0487",
">  c #5BFC01640409",
",  c #56EA03B60A32",
"<  c #43710A971590",
"1  c #4BB90CE21ABC",
"2  c #470F0AF81644",
"3  c #51CB0E5B1E33",
"4  c #56CC0ACA1295",
"5  c #4A0A141C1BC3",
"6  c #53CA14ED19F1",
"7  c #644800E502EA",
"8  c #6B49005A03E3",
"9  c #6D1002100A2D",
"0  c #64C104C90BCB",
"q  c #729601F90C34",
"w  c #725B003207B6",
"e  c #6ABD064E15D9",
"r  c #753D043E1252",
"t  c #79CF0496150A",
"y  c #7C2B09071C19",
"u  c #786D07A91A37",
"i  c #6F4914431814",
"p  c #55DA0EE92227",
"a  c #47B31DAE223B",
"s  c #552110E02262",
"d  c #5A6711AC258B",
"f  c #5B2A164D27EB",
"g  c #79760BEF235F",
"h  c #61F714EC2C48",
"j  c #7C99166727AD",
"k  c #68231A473584",
"l  c #76511BAE37E2",
"z  c #579F27B02B0E",
"x  c #554629A32C63",
"c  c #6685370E37A1",
"v  c #74AD382E3D38",
"b  c #6C7C26D333C8",
"n  c #17F545C70BA6",
"m  c #17CD58450271",
"M  c #1B26447F1103",
"N  c #1C8B4BEC12EE",
"B  c #173748061248",
"V  c #1E3251CC14BE",
"C  c #0E06556E0000",
"Z  c #247C58230B2E",
"A  c #27FD44CB1466",
"S  c #35BB4A481AD7",
"D  c #20A553CF161A",
"F  c #21D854ED193A",
"G  c #24B55BCE1B44",
"H  c #291358D1151B",
"J  c #386E55B81A33",
"K  c #24914D730CD3",
"L  c #15726A72000F",
"P  c #18CB67DB019C",
"I  c #1B6874A90180",
"U  c #1CE87C4101D0",
"Y  c #183776E90223",
"T  c #0E8163250000",
"R  c #21727CF406F7",
"E  c #282862881E28",
"W  c #2CC571501113",
"Q  c #2F88566924BD",
"!  c #2A8364FC21CF",
"~  c #2D466B18246F",
"^  c #2CF76A9628D4",
"/  c #31E86C6B2786",
"(  c #330773E72AF1",
")  c #348F74E32AA6",
"_  c #39197A9833DB",
"`  c #2EA771512908",
"'  c #46DE59BF23B8",
"]  c #51B05EA72A7A",
"[  c #56EC67072CB3",
"{  c #54CB6E072E32",
"}  c #66BE792835DB",
"|  c #656871B1359A",
" . c #417159F91E32",
".. c #0D45176F4596",
"X. c #12971DDD4AEB",
"o. c #120D1C9A44BD",
"O. c #00F70A6C5A37",
"+. c #08C8131D4FC0",
"@. c #1570216D4CE9",
"#. c #19EA26014861",
"$. c #15E422CC51E1",
"%. c #18DD262A5423",
"&. c #1BA2296F5555",
"*. c #1D3D2C0E5B5A",
"=. c #16D623E85A4D",
"-. c #1F8B2FE95468",
";. c #2AB538B747EF",
":. c #203A2EB85B37",
">. c #21FA31445BF9",
",. c #2C4E3A33458E",
"<. c #010E0B2F69A9",
"1. c #0755143668D9",
"2. c #00700B417541",
"3. c #075915B27A39",
"4. c #11981C4268C1",
"5. c #1850282C6FF9",
"6. c #233E340063B9",
"7. c #29CE3CB16C0D",
"8. c #27173909688C",
"9. c #27D63A5E7250",
"0. c #78F92814464D",
"q. c #7B2F38B242DC",
"w. c #7E6A2EE4513E",
"e. c #38FF47C546D3",
"r. c #39F548CE5591",
"t. c #2DDD43037319",
"y. c #336E496E775B",
"u. c #348549647378",
"i. c #46D4568E4AE6",
"p. c #469257095224",
"a. c #777345A8444D",
"s. c #7468489445A7",
"d. c #557C672256BF",
"f. c #546866425439",
"g. c #47A95BE37228",
"h. c #5DF9728A66B7",
"j. c #56326BDE78FC",
"k. c #56B56BC87222",
"l. c #65937A276A6A",
"z. c #66457B847595",
"x. c #61DE74375D83",
"c. c #83390BC623EB",
"v. c #88A40CEC2A74",
"b. c #86BA11D82B5C",
"n. c #8B55149F345F",
"m. c #92F417353B0D",
"M. c #8DDB0EAF30CD",
"N. c #8A9C2DE63A42",
"B. c #80C607F01DE8",
"V. c #9957195644CB",
"C. c #8ABB1BB342FA",
"Z. c #882C3A5C4827",
"A. c #9257321A4B6C",
"S. c #972E34316613",
"D. c #86D1485C4ADF",
"F. c #8B5A47FE52F2",
"G. c #8C6756475363",
"H. c #95915AF357F7",
"J. c #924249EA4FF1",
"K. c #98AE63375C71",
"L. c #8F29617E59BB",
"P. c #9D98697B61DA",
"I. c #9E81715A6697",
"U. c #A26A6ED665BB",
"Y. c #9C1458106667",
"T. c #83F243023F97",
"R. c #1DB4837F01A9",
"E. c #1DC289C40284",
"W. c #1DEA91100000",
"Q. c #211984560493",
"!. c #22798C100433",
"~. c #24B88C740B5E",
"^. c #24F7863A0BB6",
"/. c #263893890C05",
"(. c #266796DD0913",
"). c #27FF8B421486",
"_. c #2C239CB413A2",
"`. c #2B8A964417E2",
"'. c #33469B4D1C16",
"]. c #321E8A5516C8",
"[. c #2E0CA38D143B",
"{. c #32F2A6AA1B8F",
"}. c #2FB8A9D4167E",
"|. c #34DE9C082389",
" X c #3D7E82943942",
".X c #2DDB9A6A217D",
"XX c #37E6A819265D",
"oX c #3BB0B43D2720",
"OX c #3AA7AF152F70",
"+X c #58E598F735E5",
"@X c #4B408A783714",
"#X c #6B3A86653A43",
"$X c #738288E63DB4",
"%X c #68AE98713C09",
"&X c #46EFB7F836E4",
"*X c #4BE0AD263295",
"=X c #665FA7033D7C",
"-X c #3FF099631F17",
";X c #4A94C61C37A2",
":X c #50B890F8451B",
">X c #77E58C1241C8",
",X c #66EF93C04495",
"<X c #7B1694F1452E",
"1X c #65B58E8D42B4",
"2X c #50E9B7B14931",
"3X c #6FD6A5B948C7",
"4X c #6D9482DB765E",
"5X c #74E78A13787E",
"6X c #7382884D72E2",
"7X c #67D7AEB865F7",
"8X c #59E3C62B4D23",
"9X c #8439982C48ED",
"0X c #8A419C735483",
"qX c #91319F205891",
"wX c #8B08A1265BF6",
"eX c #0B261B708C7D",
"rX c #07B5172E8669",
"tX c #099E1ACA93ED",
"yX c #005C0D40843A",
"uX c #153C285689EB",
"iX c #0E2C214696E2",
"pX c #11CA2418952C",
"aX c #15B22A029AC9",
"sX c #193D2DFB9C71",
"dX c #15A4293C966F",
"fX c #1BF431E69D95",
"gX c #1CCC339A9387",
"hX c #15AB2B96890A",
"jX c #22FB39CC9833",
"kX c #2430386789F4",
"lX c #1D3C3487A27E",
"zX c #14CD2B1EA22C",
"xX c #239E3B43A4B4",
"cX c #23893A0CA504",
"vX c #3D4C5613835E",
"bX c #2F2C4A77980B",
"nX c #2B4F44BFA95F",
"mX c #32034C68AB61",
"MX c #3781550DAA68",
"NX c #385D56EBB47D",
"BX c #2FC24C0CB2DC",
"VX c #3EF16059B2B1",
"CX c #43BE5B158ED2",
"ZX c #5BCD74048520",
"AX c #52106C3595AF",
"SX c #51FD6B7F8E99",
"DX c #624E7C4B8BF7",
"FX c #42CE5E05B483",
"GX c #459C65DFBAA7",
"HX c #491F6988ABC4",
"JX c #611A7EE9A1FD",
"KX c #49AD6D75C3D1",
"LX c #70AD88ED87F5",
"PX c #663B887BB2DA",
"IX c #5D01837BBCC6",
"UX c #801995478089",
/* pixels */
"AXDXLXJXAXPXDXLXPXZXLXAXJXLX4X4X4X4Xk.j.k.j.j.z.z.ZXZX4XZXZXLXZXZXZXZXZXZXZXZXZXZXLXLXj.4XLX4X4X4X5X4XZXSXSXSXSXAXAXSXAXAXAXAXZX2X=X3X=X=X=X=X3X=X=X=X=X=X=X9X%X9X>X1X1X1X1X1X1X1X1X,X,X%X,X,X:X,X,X:X,X,X:X,X,X,X,X,X,X,X,X9X>X9X9X$X%X:X=X+X+X+X=X+X=X*X=X+X3XJ.A.A.J.J.A.J.A.Y.A.J.A.J.J.Y.H.K.K.D.D.D.F.D.D.J.F.F.J.F.F.F.Z.Z.Z.Z.Z.A.w.Z.Z.Z.F.F.F.Z.G.P.H.K.P.H.D.Z.N.N.J.N.Z.A.N.A.Z.A.A.",
"KXKXKXKXKXKXKXKXKXGXNXKXKXVXVX4X4Xu.t.t.t.t.y.t.t.y.y.y.vXvXCXCXAXAXAXAXAXCXCXAXCXy.vXt.t.9.g.4X6XSXnXmXnXBXnXBXBXNXNXNXNXKXGXHX&X;X;X;X;X;X;X;X;X;X;X;X;X;X*X9X9X) ^ / ^ ^ ( ( _ _  X{  X X:X:X:X2X2X:X:X:X:X:X@X X X( ( ` @X9X9X+X|.OXOXXXXXOXOXOXOX&X&X;X;X&XA.V.V.V.V.V.V.V.V.V.V.V.m.V.m.P.H.b d f d f h d h h k k k k l 0.0.w.w.w.0.0.0.0.0.k k h h d q.P.P.D.c.b.v.v.c.b.b.M.M.m.m.m.m.V.",
"GXGXGXKXGXGXVXMXMXVXKXGXKXVXnXLX4X=.-.-.*.6.8.9.7.8.8.t.y.y.y.y.vXvXy.CXvXvXvXvXy.t.8.8.7.*.%.4X6XjXxXnXnXmXnXBXmXbXnXmXNXNXGXHX&X;X;X;X;X;X*XoX;XoX;X;X;XoX}.9X1XD Q F Q ! ^ ! ^ ! ^ ^ (  X_  X X X X X X X X X@X( ~ ~ ` G G >X<X].|.XXXXOXXXXXOXXXXXXXOX&XOX&XN.V.V.V.V.V.V.M.M.m.V.V.m.m.c.K.G.< 2 2 1 3 p d d 3 p s h h k j k k k l l l l k k h d d p 1 1 H.K.i t j c.c.b.b.b.j b.b.M.m.m.m.",
"NXBXVXNXVXNXmXBXNXVXNXMXBXBXgX7Xh.X.-.*.6.6.8.8.8.8.8.8.t.t.t.y.t.y.u.t.y.t.y.t.t.t.t.9.9.6.&.4X4X5.hXhXhXxXxXxXnXfXbXnXBXmXBXMXOXoXoX;XoX;X{.{.oX;XoXoXoXoX(.9X>XB F G ! ! ! ^ ! ! ~ ^ ` ( ` ].` ` )  X X( ( .X` ` ( ` ` ! G >X<XW ).].)..X|.XX{..X.XXXXXoXoXOXb.M.n.M.V.m.v.v.M.M.M.M.M.v.t K.G.@ 2 1 1 s s p s s s d h h h h h h h h h h h h h d d d d s 1 G.G.i e e i y y B.g y g c.b.v.v.b.",
"BXMXBXMXNXNXMXNXBXNXBXbXbXnXsX4Xz...&.*.*.6.6.6.6.6.9.6.7.9.t.t.7.6.6.t.9.7.9.7.t.7.7.8.8.6.&.4Xz.4.uXuXuXfXlXjXlXxXnXnXnXnXBXbXXXoXoX{.oXoXoXoXoXoXoX{.-X}.(.9X1XM F G G G E ! ! ! ~ ! ~ ` ` ` ` E E ` ( ` ` ` ` ` ~ ~ ! ! H >X<XW ).W ).`..X`.'.'.'.{.{.{.XX{.j c.v.b.v.M.M.v.M.M.v.B.B.B.q K.G.@ 2 1 1 1 3 3 3 4 p p 3 h d h d p p d h d d d d h s s p 3 2 H.K., 0 i e r u u y y B.c.B.c.c.c.",
"xXxXhXgXBXnXnXnXBXnXnXBXnXxXdX4X4XX.%.*.=.*.*.*.6.6.6.6.8.8.8.8.8.9.7.9.9.7.7.8.8.8.6.6.6.*.$.4Xz.1.eXpXdXdXaXsXsXfXfXfXlXxXlXbX{.}.~.].}.}.oX}.}.oX}.}.}.[.!.<X>XB F F G G G G E E ! ! ~ E ~ ~ ~ ~ ` ` ~ ~ W ~ ! ! E E ! G V >X>XP R.).).).).`._._._._._.[.{.'.j B.e r c.c.B.B.B.v.B.B.c.B.q K.G.o < 2 < 1 1 1 3 3 3 p 3 3 p s d p d p p p 1 p d 6 3 3 p 1 < H.K.4 0 9 9 9 r r r t t t t y y B.",
"lXgXgXlXxXxXxXxXxXxXxXxXxXzXiX4X4Xo.$.%.%.%.&.*.*.*.6.6.6.6.6.6.6.8.6.>.8.6.>.:.6.6.*.*.%.=.%.4XI.3.3.eXuXeXrXrXdXdXdXdXzXfXlXgX`.(.~.[.}.}.[.}.[.[.}.[.[.(.(.9X>XA V F V V F G V E E E E E E E E E ! E ! ! ! E E E G G V F D >X<XP U R R.E.R R ~.~././._.(.(._.i t w B.B.B.B.B.B.B.B.B.B.w w L.L.o o < < < 2 1 1 3 1 4 3 3 s 3 p p p 1 2 1 2 1 4 3 1 1 < < < G.K.4 > 7 7 0 > 0 w w q q t r t t ",
"gXzXzXlXzXlXlXzXdXzXlXlXzXiX6.4X4X@.X.o.o.o.@.&.*.=.*.*.*.*.*.*.:.:.:.:.:.:.:.:.*.@.@.*.*.$.%.4X5X4.2.3.3.rXrX3.rXiXiXeXpXpXaXhX~.(.(.(.(.(.(.(.(.(.(.(.(.!.W >X>XF M M M # N D V E V G G G E G E E G G G V V V G N M G G V D <X9XZ P I Y Y Y I U !.!.R Q.!.(.~.r w t w w B.t r B.w B.w B.w i H.H.5 o X X X < 2 2 2 1 2 2 2 2 1 1 < < < 2 O O < o O X 2 2 < < H.K.4 , , 7 7 7 , 0 8 8 0 8 9 q q ",
"iXiXiXzXiXaXzXiXzXzXiXiX5.#.f.h.6X-...o...X.X.$.$.$.%.$.@.@.@.@.X.X.:.:.$.X.#.%.o...o.& X.% & l.5X>.<.<.2.yXyXyXyXyXtXtXtXtXtXeX!.!.!.!.W.!.(.(.(.(.(.!.P K | $X9XS n # B M B N N A N V N K N N N N V V D A N N M # # M M # A >X9XW T m I U U R.R.R.E.E.R.E.W.!.0 8 w 8 w w w w w q w 9 : 5 s.a.L.5   X X X X o o o X . X . . . . . o o X X X . . . . . . . + L.K.f : ; > > 7 7 7 7 8 8 8 8 8 8 ",
"-.#.#.#.-.#.%.%.=.=.%.e.e.4X4Xf.4Xe.& & & & & o.& o.% & & #.#.& #.X.& & & & & & & * * * = ,.x.h.4Xf.X.+.+.X.4.4.4.=.$.4.%.@.$.-.H K K K Z Z Z m Z Z H S ] $X$X{ >X' # M M M M M M M M # A M M A M A A M M A A M A A S S S J } #X$X| n N N m m V Z m Z K Z Z Z K + o 5 2 2 4 2 4 4 , 6 a c D.D.b G.c X X X . X X X . . . . X X + X + X o X X + X X + a + + x a.a.D.a.@ ; 2 ; ; ; ; 4 ; 2 4 ; 4 5 ",
"i.i.f.f.d.d.f.h.d.x.h.4X4Xh.h.h.x.4Xh.f.d.d.f.d.f.d.d.f.f.i.i.f.d.d.f.h.x.l.x.l.l.l.x.6X6X6Xl.l.d.l.d.x.d.f.f.i.i.i.i.f.s.i.p.d.{ [ [ | | [ f.} } } } >X9X} } #X#X$X} | | | | | | { | | { [ [ { | { { } } $X} 1X>X>X} 9X$X>X>X} } } | | | [ [ [ [ ] [ ] [ [ ] | s.q.q.s.s.a.a.a.s.G.G.D.D.a.v a.q.G.D.s.s.s.q.s.v a.a.a.v c c v a.v v a.G.s.G.G.L.G.L.K.G.J.D.q.v a.s.s.s.a.v v s.c c c c s.c c ",
"5X6Xk.u.r.u.g.g.j.j.g.g.g.g.SXg.g.k.j.SXSXSXSXj.g.vXSXj.j.k.4Xh.d.h.h.z.SXCXCXCXCXSXCXSXSXCXCXCXCXCXCXHXFXCXAXFXCXFXCXCXFXAXDXUXqX9X@X{ ) { { :X#X@X#X@X@X@X@X@X@X1X,X:X:X:X@X{ { @X@X+X#X#X$X} #X#X$X$X+X+X+X@X@X+X+X+X+X+X+X-X+X+X*X=X*X*X*X*X*X*X+X*X+X+X%XqXI.H.s.b z c v v q.v 0.v v 0.q.0.q.F.D.q.0.q.0.0.v 0.q.D.D.D.D.q.v v D.H.D.N.N.N.N.N.N.Z.N.v N.N.N.N.N.A.N.N.N.N.N.N.N.N.N.N.H.U.",
"5Xr.....X.+.$.=.*.5.6.9.y.y.y.y.vXvXy.CXvXy.y.y.y.t.t.t.7.7.g.4Xh.k.CXgXjXcXfXeXeXdXcXcXmXNXGXGXKXKXGXGXFXFXFXBXcXcXaXeXeXtXjXwX0X/ # M B B B F F ! ! ^ { _ _ _ _  X X:X X_ _ _  X( ` ( ~ W @X$X} #X X`.`..X.X^.R.)..XXXOXOX2X2X;X2X2X;X2XOXOXOXXX.X`.E.E.E.|.0XI.f   X O O O < 2 1 3 d h k h k k k k 0.k k k h h h d h p d q.D.q.D.b u r g e 0 9 9 u y b.n.m.m.C.V.V.m.m.m.n.b.B.u q 8 7 8 j P.",
"4X$.$.-.*.>.-.*.*.-.*.6.t.t.y.y.y.y.y.vXvXy.y.y.y.y.y.t.t.*.*.4X5XuXeXgXcXbXcXcXxXxXxXmXnXnXmXBXmXmXmXmXBXcXcXFXcXmXmXxXcXaXuXUX<XB F G G F Q G G G G ! ! ( _ _ _ _ _  X@X@X_ ) _ ( ) ) ` E G <X9X~.^.).|.|.|.|.XXXXXX|.|.OXOXOXOXXXXXOXXXXXOXXXXXOX.X|.|.`.W 0XP.X < 3 1 1 1 a 5 1 1 3 f f h k h k k k l k k f h h h h h 1 1 H.K.i 9 i g j g c.g j c.c.c.c.b.b.b.b.b.c.c.c.c.b.c.c.g g g q i K.",
"4XX.%.-.*.&.&.*.-.*.*.*.*.6.t.t.t.t.y.y.t.t.t.t.t.t.t.7.7.6.*.4XI.rXrXjXkXcXcXjXcXjXkXcXnXxXlXnXcXlXgXxXcXmXcXxXcXmXcXcXcXcXeXLX<XM F F F F F F F F G G G ! ^ ^ ( ( ( ( ` ` ` ` ` ` ` ` ` E V $X$XR R .X.X.X.X.X.X.X)..X|.XX.X.X.X.X.X.XXXXX{.XX.XXX{.|.XX'.R qXL.X < 1 1 < 1 < < 1 1 1 1 3 f d f f h h f h h h d d d d d p 2 F.H., 0 u i t u y y u i u c.y y y c.u i B.g c.c.y B.B.g c.c.r 0 K.",
"h.X.$.%.%.%.%.%.=.&.*.*.*.*.*.>.6.8.8.8.8.6.8.8.8.8.8.8.7.>.&.k.z.4.rXuXuXsXsXfXfXfXfXfXxXlXxXlXjXgXcXcXcXcXcXcXcXcXcXcXcXaXrXwX<X# N F F F F F F F F F G G G ! ! ! ~ ! ! ! ` E ~ E ~ ~ ` E V #X$XR U W ).).).`.`.`..X`..X.X_.{.`.`.`..X.X`.{..X.X[.'.'._./.Q.0XL.X < < < < < < < < 1 1 5 1 1 3 s p p p p p s p d d d d p p 2 F.H.: 0 4 e r r r r u r u u y y y u e y y y y y y y y y y y w i K.",
"l.@.@.@.$.$.$.$.$.$.$.&.&.*.*.&.-.-.>.6.6.6.6.6.6.6.6.6.6.*.=.4X4X3.rXuXpXdXaXaXsXsXsXsXfXfXlXfXlXlXlXlXlXlXlXcXjXdXuXdXjXpXuXLX<X# N V N N F N V N F F F G F F G G G E E ! ! E E E E E E G V $X<XP U ^.).)././././.`.`._._._._._._._._._._._._._.).^.)._.~.Q.qXL.. o < o < < o < < < 2 2 2 1 2 1 3 1 3 p s 1 s p 3 3 3 3 1 < H.H.> 7 0 r r q r r r r r u r t t t t t t u t t t t r 0 r u 8 8 K.",
"z.#.@.@.@.@.@.X.X.X.$.$.$.&.@.o.@.%.*.*.6.*.*.6.*.6.6.*.6.*.$.4X4X3.eXpXtXpXpXpXpXaXaXaXaXaXaXsXsXsXfXzXsXsXsXsXsXsXuXdXdXrXuX5X6XA B M N N N N N M N N V V F M M F G G G G G G E E E G E Z V 1X<XI R.~.!.~.~.~.~.(.~././././.(./._.(./._.(.(._.(.(.!.^.~.U Q.0XP.X o o o o o o o o < o < 2 o + o o 1 3 1 1 1 1 1 1 3 3 1 2 < G.L.> 7 9 8 9 9 9 w q 9 q q q r q r r r t t t t r t q e 9 q 0 i K.",
"4X#...@.o.% X.X.X.X.X.$.@.$.@.@.#.o.$.$.#.&.-.-.*.*.*.*.*.=.$.4X4X3.tXrX3.eXtXtXeXeXeXpXiXiXiXiXpXaXzXaXaXaXsXzXaXaXdXaXeXtX9.UX0XA n B M # M M M M B n N N B M M A N N N V G G G Z G V G V V >X9XR R.Y I R.Q.Q.Q.R Q.!.~.!.!.!.!.(.(.(.(.(.(.(.(.(.(.(.Q.E.W qXI.X o o o . o o o X o o o o o X X o o o o < 1 1 1 1 1 2 1 2 2 G.K.0 8 > > 8 8 8 8 7 7 8 q 8 q w q q q q q q q q q q q q 0 7 i P.",
"4X;...............X.X.....X.o.% % % & % ....$.$.$.$.=.$.$.X.o.4X6X*.2.yXyXtXtXyXtXyXtXtXtXiXiXrXiXtXiXiXiXiXtXzXiXiXiXiXeX1.g.wX0XK # B # M # B B n n n n n n # # # # # # n N N V V V V V C F >X9XH L Y R.R.R.U R.R.R.W.E.W.!.Q.E.E.!.W.W.W.W.W.W.W.!.W.R.P | qXI.5   o . X O X O X @ @ @ @ .   . . .     . o X < < O < < O 5 H.K.6 : 7 7 7 7 7 7 8 8 8 8 w 8 8 8 8 8 w w w w w w w w w 7 : s.U.",
"6Xf.* * * * * * * * * * * & * * Q e.Q ,.= = * * = = * ,.= * f.4X4Xx.Q ;.&.&.-.-.:.:.-.;.-.-.,.e.e.,.;.;.,.,.;.;.>.;.;.;.e.i.6X5XqX[ A S A A S A A A S A A A A S S S S S S S S A S S S S S S | 9X<X} ' S J J Z H Z H Z H H H J  .J J J J J J H J J H H J  .[ >XqXU.s.a a a 5 + 5 + + 5 + + + 5 a x x a a a a a a 5 a a a f a s.H.P.s.x a 6 6 5 4 s 1 6 1 6 6 6 z z z z 6 z 6 f 6 6 6 f a z s.K.P.",
"DXJXDXZXDXAXSXj.SXj.j.k.l.l.l.l.4Xh.k.4XLX4Xj.4XLX4X4X4XLXLXLX4X4X4XLX6X4X1X4X4Xl.l.x.4Xl.4X6X4Xl.l.4Xz.j.k.z.j.z.z.z.z.LXLXZXDX3X3X=X=X3X+X+X+X+X+X#X#X#X>X$X} $X$X$X%X<X%X$X,X,X,X$X<X<X<X3X<X<X<X9X<X} 9X>X>X>X>X>X$X>X>X>X>X$X$X<X>X,X#X#X1X%X$X$X$X<X3X%X<XJ.J.J.A.Z.A.Z.Z.Z.Z.Z.Z.D.L.G.D.F.D.D.F.Y.S.F.F.F.F.J.F.J.Y.Y.H.H.H.P.P.L.G.G.G.G.F.G.G.G.G.L.G.a.D.H.G.D.D.D.G.D.G.G.G.H.H.J.J.",
"KXKXKXGXNXNXBXBXBXBXnXBXBXMXSXh.h.ZXMXHXVXHXIXIXKXIXIXIXIXIXIXIXPXHXCXCXvXbXvXbXbXbXbXbXbXbXSX4Xl.l.CXcXcXcXcXxXnXBXBXBXNXNXKXHX2X;X;X;X&XoXXXoXoX}.oX{.XX*X=X#X#X%X*X*X&X2X;X2X2X8X8X8X8X8X8X8X7X*X-X-X-X-X-X-X-X-X'.-X'.-X=X$X#X>X+X.X`..XXXXXXXoXOXOX*X&X;X&XC.V.V.m.M.v.v.v.c.c.v.v.b.n.J.a.q.A.C.C.V.C.S.V.V.S.S.S.S.S.S.S.S.V.l n.l n.l b.j j l j j l A.D.v D.N.y y t y y c.b.b.b.M.n.m.V.",
"nXjXjXlXlXlXlXcXlXlXlXlXcXzXjX4X4XbXkXbXbXbXMXMXMXMXMXHXHXHXHXHXVXbXhXhXgXgXgXgXkXkXkXgXkXhXhXh.l.bXtXeXpXpXpXpXpXdXsXlXlXxXnXbX|._._.(.[._.`._._.[.[._._.(._.<X>X-X].'.|.|.XX*X|.*X2X*X&X2X*X*X*X|.R ^./.~.~.~.~.~.~.~.~.R.E.#X$X-XR.R.E.~.E.~.~././.(.[.{.{.|.j g y y u u t y y y t t t w y H.G.l e j g v.l l C.n.m.m.C.C.C.C.C.g e e e e e i g e u e u 0 e D.G.b.7 0 9 9 9 q q q t t y B.B.B.",
"sXdXsXlXgXgXfXlXcXlXlXlXlXaXeXz.6XhXhXbXjXkXkXjXbXbXbXbXnXbXbXbXbXkX5.kXjXbXbXgXjXjXbXjXbXjXrXk.z.eXrXpXeX3.uXdXdXdXdXsXsXsXzXgX)./._._./.)._._._.[._._./.(.Q.$X9X^.~.`.`.).`.'.`.'.'.'.|.'.|.|._.).^.].`.].`.`.`.`.].].`.].U #X<XR U ).R U ^.~././././._./._./.i w q t u r r t t t t r t r 8 G.K.e e g e g g g g g j g g g g g g h e e g g g e g g h g g u , D.G.7 7 9 0 > 9 9 q q q r r r r t ",
"fXfXlXlXsXsXfXsXsXsXsXaXaXpXyXz.4XrXhXhXhXhXgXhXhX5.5.gXjXgXjXgXhXgXgXhXhXuXhXhXhXdX5.5.hXkX3.z.z.3.eXeX3.eXtXpXpXpXpXdXaXaXsXgX`.(._.(././.(._.(.(.(.(./.(.R.$X$XU ^.^.^.^.^.^.^.W R ).).].).`.^.^.^.^.^.^.^.^.^.^.R R ^.).U %X>XY U R U U ^.^.~.^.~./././.(.].i t t q r r t t r r r r q w 7 G.K., e e e e e e e e e h g g g u e e e e e e e e e e e , e e 0 D.G.> 7 7 7 0 8 9 9 9 w q q r q t ",
"dXdXdXaXaXaXaXaXaXpXpXpXpXpXrXk.6X9.3.eXuXuXeXuX5.3.hXhXuXhXhXhXuXeXeXrXrXuXrXuXuXrXuX3.3.uX3.k.4X3.rXrXrXeXeXeXeXtXeXtXiXpXpXhX~.(.(.(.(.(.(.(.(.(.~.(.~.!.R.#X9X) I R R R R U I R R R ^.^.^.R Q.R R R R R R R R R R P R R I #X<XL Y U U ^.Q.R.Q.!.Q.!.!.~.!.~.i 8 r q q q r q q q q q w 9 7 D.K.b > 0 0 0 , 0 , , , 0 0 e e 0 0 0 e 0 0 0 0 0 0 0 , , 0 0 > D.K.> 7 7 7 7 7 7 8 8 9 8 w w 9 w ",
"iXiXiXpXpXpXpXiXpXpXiXtXtXtXyXz.5X9.2.3.3.3.yX3.rX3.3.3.rX3.3.3.3.3.3.3.3.rX3.3.3.3.3.3.rX3.2.g.z.1.3.rXrXrXrX3.rXtXtXtXtXiXiXuX^.!.!.!.!.!.Q.!.!.!.!.Q.!.Q.U $X9XW T R I I I I I I I I I I I I I I I I I I R I I I I I I I L #X>XI Y U U U U I U R.Q.Q.!.!.!.!.0 w w w 9 0 8 9 w w w 8 8 8 7 G.U.i : > > > > > > 0 > > , , > > , > > , > > 0 > , > > 0 > > > a.H.4 > > 7 7 7 > > 7 8 8 8 8 9 9 ",
"1.eXeXrX3.rXrX3.rXeXeXtXeXrX3.z.5X4.<.O.O.<.2.<.2.<.<.<.<.O.2.<.<.<.<.2.<.<.<.<.<.2.2.2.<.<.<.k.5X3.2.2.3.rXrXyXrXrXtXtXrXtXeX4.P R.Q.U U I I U U Q.R.Q.R.R.R $X9XW C m m P P P P P P P m m P P L L L P P T m m P P L P m m L #X9XI P I I Y U U U R.R.E.R.R.R.P < 8 7 > , , , : 0 8 7 7 7 7 > G.K.6 ; ; ; , : : : : : , ; ; : ; : > , : : : ; ; , : : : : ; : G.K.4 : > > > 7 > 7 7 7 8 7 8 > : ",
"1.3.3.3.3.3.3.3.3.3.1.3.2.yX4.l.l.=.O.O.O.O.O.<.O.<.O.O.+.O.+.+.O.O.O.O.O.O.O.O.O.+.O.O.O.<.O.h.6X5.2.2.2.2.yXyXrXyXyXyXrX3.1.1.P I I I I I I I I I P L I Y W $X$XZ C n n n m C m m m n n C $ $ n n C n m n n C C n C m m m C #X>XW Y P L I I Y U Y Y Y I I P m ; : , ; : : ; : : ; ; , , > 6 H.D.6   @ o O ; @ < ; ; @ X O . . X O @ o @ X X o @ O @ o o ; @ D.G.i : : , > > > > 7 7 > : : ; ; ",
"2.<.1.1.+.1.<.2.2.2.2.<.<.X.f.z.h.,.% % % % O.% O.% % +.% % % % % % % % % % % % % % % % % % e.l.l.r.O.<.<.<.2.2.2.2.2.2.2.2.3.1.P P T P m P T L P P P P m n { $X}  .$ n $ n $ n $ $ $ $ $ $ $ # $ $ $ $ $ $ $ $ # - $ $ $ $ ' $X#X' C P L T Y Y L L L L L L L P @ ; ; ; ; ; : ; ; ; ; ; ; @ s.J.v z       X . .     . .   .   .     . .   .   . .     .     x D.a.c ; ; ; : : : : : ; ; ; ; ; : ",
"r.p.r.i.i.e.r.e.,.e.e.i.p.d.h.f.h.l.i.e.i.i.= i.e.= i.,.,.i.p.Q i.i.,.e.e.,.e.] f.f.f.e.i.f.z.l.d.l.p.i.i.e.i.i.e.p.e.r.i.r.r.p.{ ' ] ' ] '  . .J  . .' ] } #X{ } $X[ ] ' '  . . . . . . .' ' ] ' ' ' '  . .' ] [ | ] [ ] { $X#X} >X] ] ]  .' ' ' ' { ' ' [ ' { c c c x c x z z z z z z c s.T.b a.H.c c c z c z x c x x x x c c c x x x x x x c s.s.c c c v L.a.q.G.c c z c z c c z z c c c z c ",
"5X5X5X5X5X4Xz.4X4X6X4X5XLX6Xl.DXLXLXLXLXLXLXLXLXLXZXZXz.4XLX4X4Xd.k.5X4XDXZXSXAXJXAXJXDXDXDXDXz.ZXLXLXLX4X4XLX5XLXLXLXLXLXZXLX5XwX<X0X9X9X3X>X>X<X>X<X<X3X<X#X1XwX7XwX3XwX3XwX3X,X,X,X1X,X<X9X$X} $X9X<X%X,X+X=X=X=X3X<X3X<X<X%X=X=X3X9X<X<X9X9X9X=X9X=X3X=X9XqXI.P.U.P.U.K.H.H.L.L.Y.H.I.H.a.F.Y.Y.Y.I.Y.I.Y.Y.S.F.D.F.F.Y.P.D.T.D.K.H.J.J.N.J.A.J.J.K.K.K.J.J.J.J.H.Y.H.H.P.H.H.Y.J.H.J.H.P.U.",
"5X4X4Xk.g.g.CXCXAXAXDXPXJXZXDXJXPXPXPXPXPXPXPXvXy.vXvXt.t.7.j.d.p.4XSXlXcXcXFXxXFXFXFXcXCXcXxXBXnXBXBXNXGXVXVXVXVXNXBXlXzXzXgXLX0X>X>X} @Xf. X:X:X:X7X7X7X,X,X7X7X7X7X7X7X7X7X@X X_ _ ) ( ( @X} { #X%X.X{.XXOXOX&X&XoX{.XX{.{.}.{.oX}.&X&X*X&XoX;XoX}.}.[.(.[.9XU.H.H.q.v b k 0.w.w.w.S.w.S.F.S.w.S.S.S.S.S.w.w.k h h d d d q.q.b a.J.u t b.b.b.m.M.M.c.c.c.c.v.v.v.v.M.V.V.m.M.M.M.M.B.B.w y L.",
"6Xg.8.9.9.7.7.7.t.7.t.u.CXSXCXSXSXg.SXPXLXSXy.y.y.t.6.9.t.8.7.4Xh.z.hXeXxXFXmXmXxXBXFXFXBXFXFXFXVXNXMXMXGXGXGXVXVXVXBXBXbXmXzXSXqX@X^ ^ ^ ^ ` ^ _ ^ ` _ :X:X:X:X@X@X:X7X7X:X) ) ) ) / ( ( ~ ( #X} %XQ.~.XXXXOXOXXXOXOXOXoX*XoX&X&XoXoX*X;X;X;X&XoXoXoXoX{.-X(.%XU.a.s d d f f f f f f k k 0.0.0.0.0.w.w.w.0.k k k h d f f p h D.v D.0 9 c.b.b.b.v.v.b.M.M.M.M.n.M.M.j n.m.V.V.m.m.M.n.b.B.c.t N.",
"5Xt.$.*.*.*.:.6.>.6.6.8.7.u.y.y.y.y.y.y.y.y.y.y.t.t.7.7.9.7.8.k.4X5.2.gXjXjXcXxXcXFXcXxXmXmXBXFXMXmXmXmXmXNXNXNXNXNXNXNXmXMXxXSXqXJ V G G H G G G ^ ! ! ! ^ _ @X_ _ ) _ ( ` ) ) ( ( ~ / ~ ~ ~ #X<XW P ]..X.X{.XX{.XXXXXXoXOXoXoXoXoXXX{.{.oXoX&XoX;XoXoX*XXX}.+XU.f o 5 1 < 1 1 1 3 s s s h k k k k f k k h h f h d f d d d f D.G.i : u i u c.y c.c.c.v.v.v.v.M.M.M.b.b.c.n.M.M.M.M.M.M.b.b.B.N.",
"6X-.$.&.@.&.*.*.:.6.6.8.8.6.8.7.t.8.t.t.t.t.t.t.t.t.7.7.8.6.*.z.4X1.3.fXdXgXfXcXcXcXxXxXcXxXmXBXnXBXmXmXnXnXmXmXBXBXBXBXnXmXaXj.0XZ V F F F F Q G Q ! ^ E E E ~ ^ ~ ` ` ` ( ` ( ` ` ` E ! ! G $X<XP L `.).)..X.X.X{.XXXXXX{.XX{.{.oXoX{.XX{.XXoXXXoX{.oX}.oX(.$XI.5 o < o < 1 1 1 3 3 s s s s p d d d h d h d h d d d p s 6 3 D.K.4 > i q e u u B.B.B.B.c.c.c.c.v.v.v.u g g g v.M.v.v.c.c.b.r T.",
"l.#.$.o.X.&.&.&.*.*.*.:.6.-.*.8.8.9.8.8.8.8.8.7.8.6.8.6.*.*.*.4X5X4.3.uXdXdXsXfXlXlXcXjXcXcXcXcXnXnXnXfXbXnXjXxXnXxXxXxXxXxXgX4X9XN N M B V F F F G G G E G E ~ ~ ~ ! ~ ~ W ~ E E ~ ~ E G G E >X9XG Y ).).).`.).`._._.`._.{.{.{.{.}.{._._.'._._.{.{.{.{.}.{.`.9XI.o o o o < 2 2 1 1 1 3 3 1 1 s p p p p p d p p p p p p 1 1 3 H.K.4 : r i r r r t t B.i u B.B.y B.B.y e e e e u B.B.B.B.B.B.i H.",
"4X#.o.@.@.$.$.&.=.*.*.*.:.:.&.6.6.6.6.6.6.8.6.6.6.6.6.6.-.&.r.5X5X*.2.uXuXpXpXdXdXdXdXdXsXdXgXlXlXlXfXfXdXgXfXgXgXzXgXzXxXdXiXLX0XM N N N N V V V V F G E G D E E E E E E E E E E E E E D D / 9X9XW L ^.^.^.).).)././.^./.).)._._.[._./.]./.]././.~.~./._.).!.<XI.o o o o < < < < 1 < 1 1 1 < p p p p p p p p p s 3 s s < < z P.K.i : 0 0 9 9 9 q q w 9 r e r u y y t r e e e e 0 0 9 q y r w H.",
"4X#...@.X.@.@.$.$.%.%.%.%.&.*.*.*.*.6.*.6.*.>.6.>.*.&.*.$.$.*.z.h.t.<.3.3.rXrXeXeXpXeXpXpXuXuXpXhXhX3.uXuXuXhXhXhXhXhXhXdXhXrX4X0XM M N N N N V V V V V N D G E V E E E E E E G E G H G N V J #X} / m I I U R.R.!.~.Q.~.~.R !.~.^.R R R Q.!.!.^.!.^.^.!.~.^.U ,XI.o o o o o o o o < < < o 1 1 1 1 1 1 1 1 1 1 1 1 1 < 1 o o 5 G.D.z : , > 0 7 8 9 9 9 9 q 0 0 9 0 0 4 , , 0 , 0 , 0 0 0 0 8 7 T.",
"6X#...o.X.X.X.X.X.$.@.o.o.%.%.=.*.*.*.*.*.*.*.*.*.&.%.$.@.$.X.h.h.r.<.1.2.3.rXyXeXtXtXtXtXtXtXrX3.3.eX3.uXrXrXrXrX3.rX3.rXyX=.LX0XK # n M K M M B N B M M N V D V E G D G E m G G V V V N V V #X} { T P P U U U Q.Q.!.E.!.!.Q.I R I U U Q.U R R R R R I I I Z 9XI.5 . X o o @ o o o o o X < 2 2 o 1 1 1 1 1 1 2 1 2 < < o < o D.a.c ; : : > 7 7 7 7 8 8 8 w 8 , , , , , , : , , : ; , , , : 5 K.",
"wX,.% % % % o.% o...@.@.o.@.@.@.@.@.$.@.$.$.@.#.@.@.@.o.@.o.= 4Xh.h.@.O.1.1.<.<.1.1.1.1.1.4.4.1.3.<.4.1.=.$.X.+.X.o.o.X.X.X.d.LX0XS # n # # # n B # n n n B N N N m V N N N N N N A V M M n S $X#X} K m m m m P P P P P P m P P P P P m m m K m K n K K n K | 0XU.a   X X X X @ X @ @ o @ @ < < o < o o o < O < < O O O O X a H.v D.< ; ; ; ; : : : : : ; ; ; ; ; @ @ ; o < o o X X X o X . a.U.",
"DXz.d.x.x.f.f.f.i.p.i.p.i.e.e.e.e.e.e.e.e.p.i.r.i.i.p.f.f.f.4Xl.h.h.x.p.p.f.f.f.f.f.f.f.d.f.f.p.p.d.g.s.f.f.f.f.x.l.x.x.x.x.6XwXwX9X| } | | | [ { [ ] ' ] ' ' ' ' ' ' ] ] ' ] ' ] ] [ [ { | $X#X} #X} { [ [ [ { [ [ | | | | { { [ { { | | | | [ | } } } } $X<X0XU.K.G.s.s.a.s.a.c c c c c z z z x x k x c x c c c c v c s.s.G.s.v D.a.v v c v v s.s.s.q.a.a.c c c v c a.s.s.v c T.G.s.D.D.G.K.U.",
"SXAXAXHXCXAXAXHXAXAXAXAXAX4X4Xl.l.4Xk.j.j.j.ZXj.SXZXj.ZXZXj.j.z.z.j.j.SXCXg.j.SXSXSXj.SXZXZXz.z.l.l.z.ZXSXSXj.j.ZXZXSXDXAXDXSXSX+X*X+X+X*X=X*X+X=X*X=X=X=X<X$X#X#X$X#X@X1X1X,X+X:X1X:X1X1X1X1X>X,X} :X+X:X@X+X:X1X1X:X+X:X%X<X$X$X#X$X%X%X+X+X@X%X%X%X=X=X=X+X%XT.A.N.N.N.N.A.N.A.A.N.A.J.H.T.T.w.G.Z.a.Z.D.a.w.Z.q.Z.F.w.F.F.F.J.v 0.Z.q.0.q.q.w.q.w.Z.Z.D.H.D.Z.a.G.Z.Z.N.N.Z.J.H.J.J.J.J.Z.N.",
"BXcXcXBXxXBXBXNXBXBXcXlXaXbXz.h.l.g.y.vXvXy.y.vXy.vXvXvXvXvXvXy.t.y.t.9.9.t.9.7.t.9.y.9.8.8.g.z.h.l.CXsXFXFXFXFXFXFXKXGXGXFXNXmXXXoXXXXX{.XXoXOXOXXX}._./.|.%X#X%Xf._ _ _  X_  X_  X:X_ :X_ @X_ _ _ ( ` ` ` ~ ~ ` ` ) ) ^ ~ { <X} $X+X/.OX2X2X&X&X2X;X2X&X&XOXXXj B.c.c.B.c.v.n.b.c.B.t w j D.a.D.q.k k k h k k k 0.k k k k k k h k h d d d d d d d h h p 3 v G.v G.N.r b.m.m.m.m.C.V.m.m.m.b.b.",
"xXCXBXNXMXNXNXmXmXmXBXmXnXtXjXz.h.*.*.*.*.:.6.>.6.>.8.t.7.7.7.8.>.>.>.7.7.7.u.7.7.7.7.7.7.6.8.z.x.ZXeXuXcXcXmXmXmXNXNXNXMXmXBXMX|.|.XXOXOX&XOXoXOXXXOXXXXXQ.'.>X#XF F Q V G G ! ! ! ^ ^ ^ ^ ^ ! G G Q ! ( ~ ( ( ^ ` ~ ^ ~ ! ! #X#X%XR ^.XXXXXXOXOXOX&XOX*XOXOXOXl j b.b.M.n.b.b.b.b.b.b.c.8 j G.a.5 1 5 1 1 1 3 a 1 s s f h d s 1 5 1 s f d d f f d d d d 3 s J.v J.0 0 j c.b.b.b.b.n.n.b.b.b.b.",
"xXcXjXcXnXnXnXnXnXxXcXjXjXcXrXz.k...&.&.*.=.*.*.&.&.>.6.6.6.6.6.>.>.6.7.9.8.8.8.7.7.8.6.8.6.>.h.l.9.2.dXkXuXcXcXcXcXcXcXxXnXnXbX.X.X`..XXXXXXXXXXXXX|..X|.`.U $X} B F F F F G G F F G ! G ! ! E G Q ! ! ! ! ~ ! ^ ! ! ! ! ! E #X$X) T ).` )..X.X.X{.XX.XXXXXXX|.j u i y c.c.c.c.c.B.B.u c.t 8 D.q.o < < + 1 1 1 2 < 1 p s 3 s s 1 + 3 s p d d d s p s p p p 6 a.D.h ; i e e u y y y y y c.c.c.c.",
"cXcXcXcXcXcXcXcXcXcXjXsXcXsXrXh.d...&.@.%.%.%.&.*.*.*.*.>.>.6.6.6.6.6.6.6.8.:.>.8.8.6.6.6.:.:.h.l.4.2.kXuXdXfXfXfXfXcXfXfXgXcXjX.X{..X`.{.'.'._.'.'.`.`.`.`.R.#X{ B F N F F F F F G F G G G E G E E ! E ! ! E E ! ! ! E ! G G #X$XP I ).R ).`.`..X`.`.'.).).{.`.y B.y y y y y y y B.i r i r 0 D.q.. o + X o X < 2 1 1 1 1 5 1 3 p p p p s p 1 1 3 s 3 3 3 1 5 T.G., , e 0 e r i u u u u u r y y ",
"jXfXfXfXsXfXsXsXsXsXsXsXaXpXrXh.d.+.@.o.@.@.@.$.@.@.%.&.&.%.#.%.*.*.*.:.:.:.6.6.*.*.*.*.*.*.%.l.4X1.3.uXuXuXdXdXdXaXaXdXdXdXdXgX`.`.`.`.`.`.`._.`.`./.`.).).U } { n N M A N F N F F F F V F V F G G G E G G E G E E G G G V K $X>XP L ^.^.).^.).).).).).).).`.`.i w i t t t r r r r r r r 9 0 T.q.. X . X X X X X X X + o o o o < 3 1 1 1 1 3 3 1 1 1 1 1 2 < G.L., : 0 0 e 0 9 r 9 r r q e r r ",
"pXpXpXaXpXpXdXpXpXpXpXeXpXeX3.DXd...#.o.X.@.X.@.@.@.@.@.%.@.@.#.&.*.*.*.*.*.%.@.*.*.*.*.*.$.>.5Xl.1.2.3.3.3.uXeXeXeXpXpXpXuXuXhX).~.).E.~.~.~.E.~.E.).^.E.E.I <X} # M M B B M M M B M M V A B F V V G G G H D N V V G V G V J 9X>XZ P R I R U R R.E.^.^./.E.E.^.i q 8 w 9 8 w 9 9 9 9 8 8 8 4 G.s.. + . X X X . X X X . + X X X o < 1 1 1 1 < o 1 1 2 2 1 < s H.H.2 : , > 0 0 0 0 8 9 9 w 9 8 9 ",
"eXtXrX3.3.eXtXeXeXrXeXrXrXyX4.wXk.% o.o.o.% o.o...@.@...@.& ..@.@.@.%.&.=.%.@.@.&.$.%.$.$...;.5X6X=.<.<.1.3.3.3.rXrXrXrXrXeXtXeX^.E.U I I R.Q.E.R.R.R.U Q.Y E 9X| # # K M # # # B M M M # M M N N N V V D V B D V G V V N n / 9X<XZ m P P L I I I I U U R.U E.R 0 7 > > > 7 8 8 8 7 7 7 7 > 4 K.s.X . . . . . . X X . . . . . . . o < < 2 o o < 2 < < < o X z U.K.1 ; , , > > > 7 > > 7 7 7 8 8 ",
"yXyX2.2.yXyX2.yXyXyXyX2.2.O.d.z.z.,.% % % % % % ..% % % % % % % % ....o.X.X.X.$.X.X.o.o.....:.z.6X=.<.<.<.2.<.2.2.2.yX2.yXyX2.3.Y Y L L Y Y L Y Y Y Y Y L m { >X9XS $ n # # # # # # # # $ # $ # # $ # n B N B N B B B # # # F >X>XZ C P P P L P Y Y I I Y I I I > 7 : : > > : > > > > > : ; a.K.L.x   . . . .   . .             . . . . O O O o O O . . .   5 H.H.5 ; ; : ; : : : : > > > > > > ",
":.#.-.>.;.;.r.;.:.X.:.:.-.d.5X6XDXz.e.,.* ;.& & & = ,.e.e.e.e.e.e.e.e.,.,.= ,.,.;.= & #.#.= ;.6X5Xp.& #.X.X.$.$.=.$.=.=.#.-.#.;.G H H J J J J J H Z H H H { 9X9X9X$X .K S A A A A A J J J ' '  .' ' J J S J S S S A A A A A S <X9X] A K K V Z Z Z Z Z Z D A S J a 4 6 6 z z z 6 6 6 6 6 5 s.P.K.K.L.x + 5 + + + + + + x z z z z x x a a a a a a a a + a 5 + a K.P.c o < < o 2 2 ; 2 4 1 5 5 5 5 ",
"l.6Xl.5XI.LX4Xz.z.h.h.l.z.5Xz.z.I.wXz.z.l.l.l.l.4X4X4X6X5X4X4X4Xz.l.4Xl.4X4Xz.h.l.l.l.l.l.l.l.z.z.z.l.l.l.l.h.h.d.l.h.h.l.l.6XLX>X$X>X<X<X9X<X>X$X#X$X$X$X9X$X9X9X9X9X>X$X$X$X$X<X<X$X9X9X9X$X$X$X$X>X>X>X<X1X$X#X#X$X$X1X>X>X<X<X<X>X1X$X#X} #X} 1X} #X>X>X>X<XK.L.L.L.H.K.K.L.G.D.G.G.G.K.K.K.K.P.K.K.H.H.G.G.G.L.P.I.U.K.G.H.G.F.G.G.H.K.G.D.s.F.G.s.D.G.H.H.H.H.G.G.G.G.G.D.D.G.s.G.G.L.K.L.",
"6XSXxXjXxXnXnXmXMXFXFXFXHXFXFXFXVXHXHXHXFXFXFXCXMXVXVXHXZX4Xx.d.h.l.g.r.>.8.>.8.7.u.y.y.CXj.SXSXSXSXSXSXSXSXSXCXSXCXu.7.u.g.4XwXqX+XXX|.|.XX|.OX*X&X&X&X&X*X&X&X*X&X*X&X*X*X*X{.XX&X&X*X%X$X#X} } >X{ ) ^ Q Q E ! _ _  X X:X:X:X:X:X:X:X:X:X:X:X:X@X) ( ) { <X0XI.N.c.j c.B.c.b.b.n.m.m.m.m.N.m.V.N.A.m.N.m.n.b.n.m.m.A.J.H.v v q.F.v h f s s a f h k k 0.q.q.0.0.w.w.Z.0.q.0.0.0.b k h h b K.K.",
"z.uXyX3.rXeXpXlXcXcXxXmXmXNXFXFXVXNXFXBXxXcXlXlXzXnXNXNXNXMXZXh.l.&...%.:.*.:.>.>.t.y.y.vXy.y.vXvXvXCXCX7.7.7.7.7.6.6.6.:.=.u.UX0XR Y Y U ^./.`._._.{.{.oX&X&X&X&X&X&XoX}.}.[.(._.{.*XoXoX*X%X#X$XF n V F G G ^ Q ^ (  X X_  X{  X X:X X( ~ ~ ~ ^ ! E E E D ) 0XI.0 > > > 8 9 r i B.c.c.b.b.M.m.m.M.b.v.c.t t t t c.v.c.v.b.J.a.D.a   < < 1 5 s a f f k k k k k k k l k d p d d d 3 3 1 1 ; b K.",
"z.3.eXuXeXuXpXdXsXsXdXsXaXfXlXlXlXlXlXlXlXxXxXxXnXxXxXnXnXlXmX4Xk...X.*.*.*.:.:.:.6.7.7.7.y.y.y.y.y.y.7.8.9.9.7.7.7.7.7.7.6.:.LX<XI R.~.^.R )./././././._./._.[._.[._.[.[._.{.{.[.[.[.{.[.[.-X9X} $ M G G F G Q G ! / ^ ( _ _ _ _ _ _ ~ ~ ~ ~ ~ ~ ~ ~ ~ / ! H 0XK.> 8 9 0 0 q r r r q r r r t t t t t B.t u u B.B.y y B.B.t b.L.q.X X 1 < 1 1 1 1 s f f h h k h k k f d d d d d d d d d f 3 6 K.",
"z.3.eXpXpXpXpXpXpXaXaXdXaXdXdXfXlXlXlXlXdXgXgXlXlXlXlXaXfXiXkX6Xp...X.&.&.=.%.&.*.*.:.6.8.8.7.7.7.7.6.8.8.8.8.6.8.6.8.6.6.:.&.I.<XP R.^.~.~.~.~.~././././.~././.(._._.(./.~./._._._.[./.(.(.(.9X{ n M F F F F V F F G ! Q ^ ^ ^ / ~ E ! ~ ! ~ ! ! ! ! ! ! G H 0XK.: 7 0 9 9 9 q q q q r r 9 r r t t t t r r t t t t t r t w y H.s.. o 1 < 1 2 < < 1 1 3 s s f f f d s s s s s s s s s s s 3 5 K.",
"z.3.rXrXeXrXtXtXpXpXpXpXpXaXpXaXaXaXzXsXaXzXlXzXsXzXlXdXuXiXkX5Xd...X.%.%.%.%.=.%.%.%.*.&.*.*.*.*.:.>.6.6.6.>.>.6.*.>.>.:.*.&.LX<XP U ^.U U Q.!.^.~.!.~././.~./.(.(.(.(.(.(./.(.(.(.(./.Q.!.].9X{ # M F N F V F D F F F F G G G G G G E E E G E ! G E G G G D 0XL.: > 7 7 0 8 8 8 9 w q q q 9 q q q q t r t t q t t r r 0 9 r K.a.  o < + < < < < < 1 < 1 1 1 5 1 1 1 1 1 3 3 3 1 s 1 1 1 < 6 K.",
"z.1.2.rX3.1.rXtXtXtXtXiXiXpXpXiXiXaXaXaXaXaXaXaXaXaXaXaXdXpXhX5Xg.% X.$.@.@.@.$.@.$.$.$.&.=.&.&.%.*.*.:.*.*.*.:.:.:.:.:.:.=.&.LX<XP P R.P P U Q.!.Q.!.!.!.!.!.!.~.(.(.!.(.(.(.(.(.(.(.(.!.!.~.qX@X# M F N N V N V N V V V F V F F G F G G G G G G G G F F F H 0XL.: > 7 , , > 8 8 8 8 8 8 9 9 w q q q q w q q q q q q q q 8 i U.D.  o o < o < o o < o < o < < o < 1 1 1 1 1 1 1 1 1 1 < 1 < a K.",
"l.1.<.2.2.3.rXrXrXeXtXtXtXeXtXtXiXiXiXiXiXiXiXiXiXiXiXiXiXiXhX5Xd...o.X.X.X.X.$.@.@.@.@.$.@.X.o.o.X.&.%.:.%.#.%.=.=.=.&.%.@.:.wX6XP m L L I U R.R.R.Q.Q.R.!.E.!.!.!.!.!.!.!.!.!.!.!.!.!.!.W.^.9X} # B A M M N N A N N N D N M # M N D D D D N D G V V V D N H 0XK.; ; : > > 7 7 7 7 8 8 8 8 8 8 8 8 w 8 w w w w 8 w w w w 8 i U.a.  X o o o o o o o o o o o o X X o 2 2 2 < o < < 2 2 < < @ a K.",
"z.*.2.<.2.rXyXyXyXyXyXtXyXtXtXtXtXtXtXtXiXeXtXtXiXiXtXtXtXtX9.5Xk...o.o.X.X.X.X.X.X.X.X.X.X.$.X.$.X.$.%.$.$.@.:.$.$.%.@.$...>.UXqXW T L I I Y U U U R.R.R.R.R.R.Q.Q.Q.E.E.E.!.!.!.!.!.!.!.W.W 0X} # M # B M M M M M B B M B N A M N N N N D N V N V V A N B J 0XI.6 : , > > > 7 7 7 7 7 7 8 8 8 8 8 8 7 8 8 8 8 8 8 8 8 8 8 i U.D.. X o O X X o o o o X o o o o o o o < o < o < o < < o < @ f K.",
"UXd.X.4.1.<.2.1.3.3.2.2.3.2.4.1.1.rXrXrXrXrXrXrXrXrXrXrX3.=.r.LXl.& % % % % o...o.% o.% o.& & & o.X.X.@.X.@.X.#.X.$.X.o.X.% r.LXqX{ n m m P P P L I P P I I P P P R U R U R.R R.U R R R I m ] 0X1XA # # # # M # # # # M # M A # M M M M N M B A n n M M n # ' 0XI.a.o ; ; : : : : > > > > > : : > > 7 7 7 7 7 7 7 7 7 > 7 ; c U.G.+ X X X X X X X X X o X X o o o O O o O o o o o O O O @   c U.",
"5Xz.x.i.i.,.i.,.e.e.e.i.i.e.i.i.e.e.e.e.e.;.;.e.e.e.e.e.e.d.6X5Xz.x.i.i.i.e.e.Q e.e.e.i.i.i.i.x e.Q ,.,.,.= ,.= ,.Q ,.e.e.i.h.wX0X9X} [ ' J  . .J ' ' ' ' ' ' [ ' ' J J J J J J J J  . .' | <X<X9X| ] ] ' ' Q ' ' ' ' ' ' ] ' ' '  .S J S J S S J J J J ' ' $X0XI.K.D.c z z z z z z z z x x c c c z z 6 z 5 z f z 6 z z c s.K.K.K.s.c x z x z z z z x x c c c x z z a z a a z a a z a z z z G.P."
};
