/* XPM */
static char *_7c9931ea9084860f7faa49e641b06a4X2UVLnen4Mde0wvQ[] = {
/* columns rows colors chars-per-pixel */
"32 32 2 1 ",
"  c #10162E",
". c #12274D",
/* pixels */
"                                ",
"                                ",
"                                ",
"                                ",
"                                ",
"                                ",
"                                ",
"                                ",
"                                ",
"                                ",
"                                ",
"                                ",
"          .............         ",
"          .............         ",
"          .............         ",
"          .............         ",
"          .............         ",
"          .............         ",
"          .............         ",
"                                ",
"    ............                ",
"    ............                ",
"    ............                ",
"    ............                ",
"    ............                ",
"    ............                ",
"    ............                ",
"                                ",
"                                ",
"                                ",
"                                ",
"                                "
};
