/* XPM */
static char *_f5b04712a6340c9f1ab688946adc3b7qc5EhgNPL9BBeEC6[] = {
/* columns rows colors chars-per-pixel */
"100 100 256 2 ",
"   c #3A2819",
".  c #392D16",
"X  c #3E2C2B",
"o  c #3A2925",
"O  c #3A362B",
"+  c #3C3737",
"@  c #372C32",
"#  c #21202C",
"$  c #501617",
"%  c #45351A",
"&  c #4D271C",
"*  c #732719",
"=  c #422E2C",
"-  c #492C28",
";  c #582927",
":  c #44322D",
">  c #4B342D",
",  c #493829",
"<  c #56372B",
"1  c #452D36",
"2  c #453333",
"3  c #4A3534",
"4  c #443A34",
"5  c #4D3B35",
"6  c #44363B",
"7  c #4C343B",
"8  c #4D3C3A",
"9  c #453B3A",
"0  c #523433",
"q  c #513D36",
"w  c #523E3A",
"e  c #593938",
"r  c #552B36",
"t  c #682928",
"y  c #762D29",
"u  c #693529",
"i  c #77352B",
"p  c #663A36",
"a  c #753634",
"s  c #581C23",
"d  c #3E423B",
"f  c #4D413B",
"g  c #474238",
"h  c #534135",
"j  c #53413B",
"k  c #59443D",
"l  c #5B4738",
"z  c #554228",
"x  c #684439",
"c  c #754639",
"v  c #6E4C33",
"b  c #70603E",
"n  c #3C3B43",
"m  c #30334C",
"M  c #203759",
"N  c #473A44",
"B  c #553D45",
"V  c #493A54",
"C  c #463E63",
"Z  c #6D3C54",
"A  c #384452",
"S  c #384968",
"D  c #2E4F73",
"F  c #195271",
"G  c #4C4242",
"H  c #4A4447",
"J  c #544342",
"K  c #5A4642",
"L  c #5C4A43",
"P  c #564849",
"I  c #534E56",
"U  c #644B46",
"Y  c #67564B",
"T  c #6B5A54",
"R  c #725350",
"E  c #736255",
"W  c #75645A",
"Q  c #7B6B5D",
"!  c #78685B",
"~  c #716350",
"^  c #4F516C",
"/  c #6F5768",
"(  c #516678",
")  c #7D6D62",
"_  c #766A69",
"`  c #7E7267",
"'  c #726A75",
"]  c #86362B",
"[  c #873B33",
"{  c #822C1F",
"}  c #904B3A",
"|  c #9F4D2A",
" . c #885747",
".. c #975849",
"X. c #8E514E",
"o. c #A9574C",
"O. c #8F6A54",
"+. c #AE6C56",
"@. c #816E63",
"#. c #826C69",
"$. c #837265",
"%. c #85746A",
"&. c #89766B",
"*. c #86796B",
"=. c #8B7A6D",
"-. c #817B63",
";. c #8D7C72",
":. c #877871",
">. c #917E72",
",. c #967B77",
"<. c #926D6D",
"1. c #B0726A",
"2. c #8D5C68",
"3. c #CF6E50",
"4. c #E66F53",
"5. c #CE786C",
"6. c #E67865",
"7. c #C95C4D",
"8. c #84374B",
"9. c #8E8175",
"0. c #938275",
"q. c #958479",
"w. c #99867A",
"e. c #9C8A7D",
"r. c #96887A",
"t. c #95896C",
"y. c #A18B7D",
"u. c #B38C73",
"i. c #B19C66",
"p. c #D68C54",
"a. c #E78D5C",
"s. c #C88878",
"d. c #D48C72",
"f. c #E99578",
"g. c #FB9977",
"h. c #EF8E6D",
"j. c #D4AA71",
"k. c #F9AB6B",
"l. c #FBA779",
"z. c #F0B770",
"x. c #DEAF5B",
"c. c #F6C678",
"v. c #ECCD78",
"b. c #DBD174",
"n. c #145090",
"m. c #295887",
"M. c #275B98",
"N. c #2F5186",
"B. c #276498",
"V. c #336793",
"C. c #196BAF",
"Z. c #2666A8",
"A. c #2F71AF",
"S. c #20639E",
"D. c #4A6C90",
"F. c #71728A",
"G. c #4D78A7",
"H. c #576C95",
"J. c #257AC1",
"K. c #8C7588",
"L. c #A27D8F",
"P. c #D87981",
"I. c #3388BA",
"U. c #1785BA",
"Y. c #5085B3",
"T. c #7192B5",
"R. c #728F9C",
"E. c #1B88C8",
"W. c #2888C9",
"Q. c #288DD4",
"!. c #2B94D5",
"~. c #3390CE",
"^. c #33A3D8",
"/. c #4892CB",
"(. c #69A6CC",
"). c #47ACE7",
"_. c #52ABDB",
"`. c #9D8D82",
"'. c #978782",
"]. c #9D9185",
"[. c #908B95",
"{. c #A18E82",
"}. c #A68A87",
"|. c #A49285",
" X c #AA9486",
".X c #A59589",
"XX c #A9968A",
"oX c #AC9A8D",
"OX c #A6998B",
"+X c #B29B8D",
"@X c #B59686",
"#X c #AD9C91",
"$X c #A79894",
"%X c #B19E92",
"&X c #B39C98",
"*X c #B28A8C",
"=X c #AEA195",
"-X c #B4A295",
";X c #B9A396",
":X c #B5A59A",
">X c #B9A69A",
",X c #BCAA9D",
"<X c #B7A89B",
"1X c #B9A28B",
"2X c #AF95AB",
"3X c #BDACA2",
"4X c #B9A7A2",
"5X c #B5ABAE",
"6X c #91A6AE",
"7X c #D89684",
"8X c #CC938B",
"9X c #EC988B",
"0X c #C3AB9D",
"qX c #D1B192",
"wX c #F8A687",
"eX c #FCB787",
"rX c #F9B998",
"tX c #EBAC8F",
"yX c #C2AEA2",
"uX c #CAA4A1",
"iX c #C4B2A5",
"pX c #C9B6AA",
"aX c #D0B7B0",
"sX c #F3B5A9",
"dX c #D49AA6",
"fX c #FBD687",
"gX c #FBC998",
"hX c #FDD896",
"jX c #F1CE8C",
"kX c #FCE99A",
"lX c #FCF49C",
"zX c #F2E58D",
"xX c #DAD0B6",
"cX c #FBC9A8",
"vX c #FDD7A8",
"bX c #FDC9B6",
"nX c #FCDAB6",
"mX c #E9D0B1",
"MX c #FCEAA7",
"NX c #FDF8A8",
"BX c #FCE6B8",
"VX c #FFF8B8",
"CX c #ECECAC",
"ZX c #D9D89A",
"AX c #99ACCF",
"SX c #CEB4CA",
"DX c #ADD4E4",
"FX c #D8D0CB",
"GX c #F2D2CA",
"HX c #FDE8C7",
"JX c #FFF7C8",
"KX c #F8EED2",
"LX c #EAD7E6",
"PX c #F7EEF5",
"IX c #D7E6DF",
"UX c #9DCCB8",
/* pixels */
"-XoX-X>X>X,X>XoXoX>X>X{.&.$.$.$.|.oX>XoX>XpX0XaXaXpXpX>X`.$.$.q.>X%X+X&XyXpXiX>X>X>X,X0X-X|.oX,Xy. X1X;X;X;X>XyXyX>X,XyXaXaXaXaX3X&.W |.aXpXyXiXiXoXe.oX-XoXoX;X>X-X;XyXiX-Xe.>.{.,XiX%XoX,X,XoX.X#X.X`.",
"-XoX-X;X-X-X-XXX>X;XoX{.w.e.|.|.-X%X-XXX,XpX>X>X,X:X-X-X|.>.;.q.0.{.+X%X%X;X0XyX%X+X%X-X|.0.w. X X X XoX+X>XyXpXyX,X,XyXpXyX4X>X#Xq.;.{.>XiXiXpX,X-X-X,X,X-X%X>X-X>X-Xe.{.oXy.%. X,XiX-X-XiXpXyX,X,X#X.X",
"oX X%X>X-X>X,X-X%X|.w.{.oX-X>X>X-XoX-XoX0XpX%X+X%XoXoX-X-XXX{.|.&.e.+X-X+X+X;X0XoXoXoXoX|.0.w.|.oXy.0.w.|.%X,X3XyX3X3XiXiX>X#X$X>.'.e.q.q..X-X,XoXoX-X>X;XoX XoX+X-XoX0.0.{.e.&.e.oX%XoX X%X;X>X>X#X|.e.",
"oXXX-X,X,XiXiX>Xw.=.>. X,X,X>X>Xy. X-X-X>X-X>.=.) ! ) %.=.%.@.@.E E W Q $.=.$.@.Q Q @.@.Q E ! $.;.@.W E ) %.;.;.;.:.=.>.;.#.) W T @.%.W T W $.&.&.%.=.w. XoX|.e.0.=.=.w.w.=.@.$.w.|.oX;X-XoXoX-X-X|.q.q.",
"oX|.oX>X>X,X>X Xe.0.e.-X0X>X%XoXe.e.XXoX%Xe.Y j h h j j k j j j l 5 , , l l h , h h h h h h j L K K B 8 w j J K K j j k j w 5 5 j k K k j h j l k h l $.oX;XoXw.=.%.0. XXXw.=.>.&.0.oX,XiX;X%X-X|.=.%.=.",
"e.0.e.oXoX-X-X|.%XoXoX-X-XoXXX X|.0.0.e.-X|.U = j j j j 8 5 8 q h h h h 5 5 h j h h h q q q j j 3 8 B 8 8 3 8 5 j w 8 j j 8 q j w > > j k q 5 q q : j =.;X>X|.=.>.e.XXXXoX%XoX|.$.=.e.;XiX,X>X>Xe.) %.q.",
"{.e.|.oX XoX;X-X>X,X>X-X%X%XoX XoXw.w.e.oXe.Y h j j j w 8 5 8 8 3 f j j 8 5 f k j j 8 5 8 8 q 8 B J P P J J J J j 8 8 j j 8 8 j j q 8 j K k j j k , k ;.oXe.=.&.0.e.|.|.|.XXoX X|.{.|.oX>X,X,X,X.X;.|.>X",
"yX,X,X;X|.|.-X>X>XiXiX,X,XyX>XoX-XoXoXe.0.Q j k w j j j j j j 8 8 8 f J J J f 8 j j 8 8 w j j w J J B 8 8 8 8 J j f f j j 8 8 j w j j q 5 q j j k > j $.0.$.$.0.oX|.oX,X>X X X>X>XXX0.>.0.{. X Xe.%.|.3X",
">X;X;X;X-XXX|. XoX>X X|.oX>XiXoX-XpX>Xw.) @.h j w j 8 j L j 5 j G N G 6 P G f 9 8 K w j w w U 3 K j 2 Y J J 2 8 2 K 3 f k 8 j f j w 8 j K j w q , k j Y %.=.w.w.{.|.oX,X,X-X%X>X>XoX{.%.>.e.&.&.0..X>X,X",
",X>X>X>X>X%XoXoXoX-X XoX;X-X,XoX>X3X|.;.%.=.j h j j 8 q j 5 X 2 @ + N 6 + @ 2 8 4 3 o : : o : = , , .     : 5 g 3 3 : o o o X X : = = 5 j j j j 8 j 5 T ;.>.e.{.oXoX%X;X-XXXoX,X,X,X>X>.! ! Q 0..X-X>X>X",
"0.0.e. XoXoX+X-X;X-XXX;X>XoX;X;X>X#X;.;.q.w.k q j j w 8 j : o o + @ @ + X 2 2 X : 5   , l % % z . % z , , . .       : 3 : 3 : o o o o 2 w j w j j w > E w.q.`..X-X-X-X-XoX|.oX>X>X>X,X0.! Q =.XXoXoXoX|.",
" XoX-X;X%X X{.|.;X>XXXoXoX X-X-X%X.X;.`.#X.XK w q j w w j 3 o = 8 + @ 9 X 4 , . % , % O.mXKXHXBXJXBXJXJXxX~ z % l , 5 , X 3 , 2 = X X 3 w j w w j q 5 ) {.>.q.|.XXoX+X;X-XoXoX-X;X{.{.0.=.e.w.w.|..XoX.X",
"|.oX,XiX;X|.{.|.e.oX|.|.XXoX-X{..X.X|.4X3XXXK j 5 j w w J 3 = 2 X : f g : . , z v t.i.qXVXJXVXVXVXCXVXJXBXi.i.u.z % - , 8 q 3 3 3 = 2 5 j j j j j w j :..X;.=.q.e.e.|.%X>X>X;X-XoX&.=.0.e.oX>.E %.9.|.oX",
"$.0.oX>X-X X XoX$.e.w.|.oX-XoX%.w.XX&XpXiX$XL j 8 j w w w 3 = 3 : , , . l , % % t.CXJXVXMXkXMXNXNXNXVXVXVXVXJXJXb b % > k 5 5 3 2 = = 5 j j j j w j k ;.#X>.%.&.0.0.e.oX-X>X>X>Xe.Q 0.|.XX%Xw.! W ) ;.`.",
" XoX>XyX>XoX|.|.0.w.0.|.;X%X|.Q e.#X#X3X3X#XL j w j w 8 w 3 = 8 , , l b HXJXJXJXMXVXMXlXkXkXzXb.b.zXzXkXMXVXVXBXBXxXx , j   3 w 2 = 2 5 j j j j w j j &.#X`.=.$.&.0. XoX-X-X-X;X0.Q e.%XXX-XoXw.w.;.=.0.",
"oXoX-X>X>X-XoX X-X X>.XX>XoXe.@.`.oX.X%X:X#XU w w j w w j 5 3 k 9.t.t.O.JXVXVXMXMXNXlXkXv.b.zXzXkXzXjXNXNXVXCXBXJXJXO.O.0.j w : 5 2 3 5 J j w w j w 5 #.&XXXq.@.Q 0.-X,X;XoXoXXX|.$.{.oX|.oX%X|..X=.! Q ",
"oX>X-XoX>X>X Xw.XX X Xe.=.$.0.%X-X3X#XoX.X`.L j 5 j j j w 3 j W KXJXVXlXlXNXkXkXzXhXfXfXv.jXkXVXNXVXNXNXNXNXZXqXMXBXJXHXKXl h X 3 = 2 = 5 J J P w j j %.%XoX|.w.0.{.|.oX-XoXq.>.>.{.oXoXXXoX-X:XoXe.>.>.",
"-XiXiX-XoXoXoX%X Xw.=.0.e.|.|.{.#X,X-X-X#X.XL q j j w w j 2 2 L -.ZXv.z.c.c.x.NXMXkXkXlXlXkXMXCXMXNXMXNXNXNXlXzXVXMXBXBXKXiXt.L 8 3 w K K K 8 5 5 w 8 ) XXXXoXXXoX{.;.&.q.w.0.e.|.#X>X:X-X>XiXpXyX-XoX-X",
"%XiXiX-XoXoXXXoXw.=.%.>.XX;XoX0.-X3X:X-X#X.XL q j j 5 w K 3 X > R u.z.z.p.x.fXNXNXkXfXkXlXlXNXVXNXkXhXkXNXlXlXNXNXNXNXVXVXJXt.. = X o 3 5 j j K w j w ) #X%X>X,X>X`.Q E @.&.>.|.#X:X>X%XoX#X,XiXiX,X-X;X",
"e.;X>X-X;XoXw.0.{.oX-X-X,XiX,XoX:X3X#XXX.X`.L j j j 5 w K 8 = > p u p.a.p.z.NXkXhXv.c.fXkXkXlXNXfXc.z.fXhXfXfXMXkXNXNXVXCXJXi.% z 5 o q 5 8 w K K j w #.:X,X3X>X%X`.$.Q &.&.=.e.#X-X-XXX|.XX-X,XiX,X-XoX",
"=.|.%XoXoX|.>.=. X,XpXiX>X;X-XoXoX%X|.`.`.'.L k w j w w j 5 2 0 ; t +.+.c.z.kXc.z.z.z.fXfXc.v.v.z.k.k.jXhXgXfXMXNXNXzXNXNXCXCXi.% ,   l j j 8 5 j q 5 %.3X,X-X|.{.|.e.q.e.q.;.q.XX%X-X%XoX-XyXpXpXyX-XoX",
"%.{. Xw.0.0.0.e.%X>X,X>X-XoXXX|.q.|.e.`.`.`.L j 8 k j 5 8 3 = 0 ; u d.j.hXz.hXx.z.l.k.k.k.z.z.z.c.k.h.k.l.l.eXMXNXlXb.lXNXlXVXMX~ Y   h , h j j j w q &.yX,XXX0.w.oXoX|..X|.e.w.{.oX:X-X#X%X:X,X,X-X Xw.",
"0.e.=.Q =.w.|.XXyX,X>X,X,X>X;X>Xw.|.e.`.`.'.K j 5 k j 5 w 3 = > & ; j.jXc.c.kXz.l.h.a.4.4.a.k.k.k.h.4.3.3.3.d.eXkXlXb.zXNXlXkXjXHXiX, l , h j 8 j j j :.>X%X{.>.0.#X#X{.XX%X|.q.;.{.-X-X#XoXXX.XoX|.w.%.",
"oX0.T Y >.%XoX{.%XoXoX-X%XoX-XiXXX#X`.q.q.,.j j 3 j w 8 j w 2 > v t.j.jXv.c.z.k.f.h.6.7.3.a.h.a.a.a.a.a.h.5.d.d.jXkXzXzXzXNXjXjXJXiX. z , l k , 5 j j $.XX{.w.>.;.oXoXe.XX>XXX;.Q 0.%X,X,X,X>X-X X Xe.0.",
"|.0.E E %.w.oX X{. XoX+XoXoXoXoXXX{..XE ) T L j j q w j w 3 2 > v qXqXj.x.z.p.l.h.o.5.7.5.3.6.3.3.p.f.9XsX1.1.u.rXjXfXv.fXMXfXj.nXiX, , h h h q k w : ) -X0.) q.w.|.oXoX.X{.w.>.Q ) {.>X-X-X,XoX|.w.w.|.",
"-Xw.E Q =.=.e.e. X|.XXoXoXoXoXoX#X|.{.E ) T K j j q w j w 3 2 > v qXi.p.x.z.c.k.3.* $ 8.dX9XwXh.eXcXGXsX8Xa $ $ +.j.hXc.c.kXhXz.qXy.% , h h h q 5 w j &.#Xq.=.q.{.oX%X#XoXXX|.`.%.) =.e.w.>.=.$.Q =.|.,X",
"oX>.E =.e.0.e.e.e.0.e.oX;XoX|.|..X`.e.W ) W L w j q w j w 3 2 > c j.+.3.k.k.k.| } 1./ B #.*XbXrXrXnXGX*X2.Z / L.c ..j.z.eXvXeXd.O.!   5 l h j q q j j E &.;.{..X|.#X-X-X-X%XoX|.e.;.) @.&.) E ! >.{.;XiX",
"e.0.$.w.oX XoX{.0.%.0.-X,XoX|.|.0.0.w.:.q.:.U q j q w j w 3 2 > i p.3.3.l.k.k.* } GXF.# m [.HXcXvXBXGX#.@ m K.LXp u o.h.gXgXl.d.v l   q k 8 j j j j q Y W =.-X-X#X:X3X3X,X,X-XXX-X%X0.Q =.0.;.e.>X,XyXyX",
"|. X0.e.oX-X>X|.0.%.=.|.-X X{.XX;.q.|.XX&X.XY 5 j q w j w 3 2 > u } 5.3.g.l.g.3.u.LXS M M 6XGXnXvXBXKX[.# # H.FX}.1.d.h.l.l.a.d.x , = q K 5 j j 5 w j E &.e.:XoX>X,X3X,X3XiXyX,X,XaX#X$.=.|.oX-X-X>XyXyX",
"|.-X{.w.|.>XpX>X{.=.%.=.=.=.w.XX|.XX%X3XyX&XY 3 j q w j w 3 2 > < ; 5.d.6.h.a.g.mXPXF F M 6XmXHXvXmXFX[.M D T.PXGXsXwXa.a.eXeXj.x : 3 5 J 3 J w w w 8 E 0.w.XXXX:X-X%XoX-X,XiXiX,XaX>X=.@.0.|..X-X>X,X,X",
"y.oX XoXoX-XiX,X Xe.>.$.@.%.w.+X3X>X%X3X>X#XY 5 j q w j w 3 2 2 0 - 8X9X3.4.7.h.aXPXV.F D DXHXvXBXBXFXR.M V.AXPXLXsXwX3.p.gXvXvXY X 3 5 J 5 K w J j 3 E q.&.=.|.oXoX#X#X-X>X>X-X-X-X%Xw.@.$.>.;.XX-X>X-X",
"{.+X%XyX,XoX%XoXoXoX|.0.=.0.oX,XaX3XXX%X$X.XU j j q w j w 3 2 2 4 2 8XtX7.7.7.f.aXPXDX(.T.UXmXrXtXmXFX6X( AXDXPXKXGXcXh.3.p.wXnXR o 3 3 J w P 8 5 j j :.%X%.E 0.|.%X,XiXiX3X#X`.oXe..XXX=.) &.%.Q q.#X-X",
" X{.>XyX%X-X>X`..X`.q.*.! ! 9.#X#X>XiXxXpX&XU 3 j q w j w 3 2 2 9 w u.9Xa.4.7.f.sXPXLXAX[.FXFXqX7XcXmX5X6XUXIXPXHXnXvXf.3.a.wXbXU 5 : 3 J j w j j w 8 %.#Xw.;.=.0.|.-X>X-XoXoXoX|.e.0.;.=.=.0.e.%.) ) %.",
"{.{.%X-XoX-X>X|.{.r.;.%.) Q *.q.#X-X3XpXyX:XY j j q w j w 3 2 2 2 j u.tXf.6.7.g.9XdXGXKXKXKXxXqX1.tXHXKXIXIXIXCXBXMXvXf.p.wXbXGXU 3 = 3 j j w j 8 5 5 %.%X{.q.q.q.>.;.q.|..X|.e.0.$.Q $.w.|.|.e.:.` ) ) ",
" XXX-X%XXXoXXXq.=.%.) ) ) Q Q ) {..XXX>X-X#XY w j q w j w 3 2 2 = >  .+.s.5.3.9XwX9XbXbXHXmXHXHXJXJXHXmXxXxXCXCXhXhXgXh.5.7X@X=.j 2 = 5 K j 8 w j q h :.,X#X.X.Xq.=.$.%.>.w.q.;.>.&.$.>..X%XoX`.`.q.;.:.",
"{.XX%X X{.{.w.%.&.%.$.*.=.=.*.%.0.w.`.%X#XXXU 5 j q w j w 3 2 2 j > < x 1.1.+.f.f.wXcXgXrXrXnXnXJXBXmXmXmXnXBXMXMXhXgXf.s.u.! g 9 = = 5 k j 8 w k j j ;.4X-X#XXXw.e.q.=.$.) $.=.=.w.|.|.|.XX#X-X>X=XOX.X",
",.{.e.=.=.w.w.0.`.|. X.X.X.X.X|.q.`..X>X:X#XY q j q w j w 3 2 2 > > > q R R c +.3.h.g.l.g.eXwXd.j.j.qXcXnXnXcXgXl.p.3.| v l O O 4 X = 5 K j 8 j j j 8 %.,X:X-X#XoXoX{.=.W E Q =.=.{.oXXX`.|.-X,X3X<X:X=X",
"y.XXw.@.&.e.|.|.oX%X:X-X#XoXoXoX`..X#X>X%X.XU w j q w j w 3 2 2   > 5 3 3 - p +.+.5.a.l.h.l.wXwXeXtXtXrXgXrXrXrXh.7.o.} z z O g 4 = = 8 j j w j q j h %.3XiX3X>XpX-Xq.$.Q $.=.>..XoXoX|.|.oX-X-X>X<X>X:X",
"{.%X{.&.0..X.XoX.X#X-X-X#X#XoX|.XX#X.XXX'.0.k q j q w j w 3 2 2 q j j J 3 2 R 1...+.f.wXg.g.wXwXg.g.l.wX9X9X9X9X7.o.+. .z h : : 3 = : 8 j w j k j j j &.3XpXiX,X>X|.&.@.=.q.e.w.%X-XoX{.|.#X%XoX>X<X:X#X",
"@.|.{.>.|.-XoXXXoX-X>X:X>X,X-XoX:X-X.X`.:.%.j j j q w j w 3 2 2 8 2 : J 8 3 q q U c  .[ o.o.6.3.4.4.4.3.+.o.o.X.X.Z R e - 0 0 0 5 : : 8 j w j K j j 8 ) :X4X>X#X>.&.$.%.>.w.e.e.q.|.|.e.e.XX-X-X>X:X#X].",
"E ) 0.oX%XoXoX%X-X3X3X-X%X>XyX,XiX3X{.q.;.T k 5 j w w j w 3 2 2 6 8 8 > , 8 8 2 N I / U R 1.5.3.4.4.4.6.P.X./ ^ ^ ^ V V @ 3 0 > 8 3 2 5 j j j j j L 8 E .X:X-X'.E ) =.0.q.w.`.|.Q Q {.|.%X|.,X>X3X,XoXq.",
"0.$.) 0.oX:X%XXX,X3X,X%XXXXX%X-X4X4X.Xw.&.Y j w j w w j j 3 2 4 6 6 3 5 , , G I ^ D S C V / 1.5.3.6.6.5.1.Z ^ D m.m.D ^ V N 5 > 3 : : 3 j j j j 5 j 8 ) `.q.q.;.=.>.e.{.|.|..X.X=.&.e.|.#X-X3X-X-XOXr.=.",
"q.%.) $.0.`.oX%X%X-X>X-X%XXX+X>X%X%X.Xq.%.Y w j j w w j j 5 3 4 N 6 3 j 5 4 H ( D.M.m.N.S C 2.8X5.9X5.1./ ^ N.S.I.W./.(.T.^ H 3 2 = : 3 j j j j 3 q w W :.W ) ;.oXoX%X-X:X:X-X-X`.0.&.>.q.-X>XXXXXw.%.@.",
"0.%.W E Q ;.|.#X|.|.#X>X>XoXXX+XXX`.q.&.%.E j j j w w j w 3 2 2 9 9 5 8 f H ^ H.A.Z.Z.Z.N.S ^ K.*XdX<./ n S B.C.W.!.)._.(.S n + 4 2 : 5 j j w w j k 8 Y ! E %.`.-X,X3X,X,X:X>X,XoX`.@.@.Q XXoX{.`.;.%.=.",
"r.) Y Y $.e.|.e.XX{.{.oX+X{.w.w.{.&.%.) :.%.k w j w w j 8 2 = = 2 9 4 O H ^ D.V.B.Z.Z.Z.M.D S ^ K.[.^ I A N.G./.~.E.E.^./.F S n 2 = : 3 j j j j q L 8 L Q %..X#X-X>X,X:XoX.XXX#X%XoX0.=.! e.`.q.=.=.=.e.",
"*.%.) ) =.e.|.`.#X X{.{.{.y.y.y.w.) %.$.w.q.L w j q w j 8 2 = : : 5 4 @ A ( D.m.M.Z.Z.Z.M.M.N.D D.H.S S ( H.Y././.W.U.^._.Y.D.A + X X 3 w j j j 3 L 8 Y ;..X:X-X>X,X,X-XXX{.|..X.XoXoX|.%.=.&.$.%.=.e.oX",
"! ;.'.r.9.0.`..XXX#X%X X{.{.{.{.>.@.`.e..X`.k j w 8 w j w 3 3 > , 5 9 A S D.V.n.n.M.Z.Z.B.V.B.m.F D S H.6XF.H.G.Y.I.C.~./.(.Y.D H 3 : 3 w w j j 5 j 3 E `.oX:X-XiX3X,X:X-X-X%X%X|.XX,XoX;.E ! E &.w.oX+X",
") 9.e.`.`.|.`.w.|.>XyX%Xe.0.>.&.&.&.-X%X#Xe.j j q 5 w j j q 5 0 h 8 A S V.V.B.n.n.n.M.V.V.B.M.B.B.B.G.AXLX6XT.Y.A.Y.S.Z.Z._.(.(.^ H H G G f q q l 5 : W .X.X$X:XiX,X-X-X,XiX3X>X#XoXiXoX>.Y E E %.y.-X-X",
"e.e.oX-X|.e.{.e.{.0. X|.w.=.E $.].#X3XiX0X+Xl h j w 3 w k q < q B H ( D.B.Z.A.n.N.D m.V.V.B.V.A.A.A.Y.T.T.AXAXG.G.A.n.Z.Z.W./.(.T.R.A A n G 5 h < e h E ` T _ '.$X|.|.#X-X#X#X:X.X-X#X0.%. X=Xe.$.$.=.w.",
"w.y.+X-XoX X|.w.0.Q *.9.0.*.! *..X#X;X>X;X@Xe q w 8 8 8 q q < q N ^ D.V.S.Z.Z.n.N.N.m.V.B.B.A.~.A././.B.G.DXDXY.Y.A.n.Z.C.A.~./.T.T.( A n P j q l e e @.'.` ' ` 0.|.#X#XoX.X.XoX|.0.=.=.0. XoXe.) Q $.;.",
"y.XX>X>X;X;XoXe.&.W %.9.9.=.$.].]..XXXoX@X@Xl q k J J J 8 j x j I ( D.V.B.S.M.n.n.M.Z.S.C.A.~.~.).W.W.~.A.A.I.I./.A.n.C.Z.Z.A.G.T.6XR.( n 8 5 k x < < >.3XOX:._ ! e.-X#X|.|.|.e.0.Q Q 0.e.`..XoX) ! E Q ",
"@X>X,X;X,XyX-XXX%.=.|.0.*.=.9.#X.X.X X|. X@Xx k w 8 f 8 3 j l 3 I ( H.D.D.V.M.M.n.C.C.C.C.W.!.!.E.Q.^.).W.A.W.W.~.J.n.Z.B.V.V.D 6X[.F./ P G 3 Y h < q >.pX3X].:.T %.e.|.`.`.w.0.Q ! 0.oX.X`.oX:X`.q.;.=.",
";XyX;X+X>X0X-X-X0.e.|.$.! 9.r.OX=X:X;XoX X Xk k J G H G f j h 5 6 I / / ( ^ D n.n.C.C.C.C.Q.!.!.Q.!.!.E.W.).).Q.~.W.n.n.N.H.F.' 2X` I O 9 J X , q q 5 =.3X,X=X|.) ! ) ;.r.0.*.%.Q =.oX3X-XoX#X#XoX.X`.0.",
"+X>XXX|.;X-XoX;X%X|.0.E ! r.e.e.3XiXiX-X@X Xh 5 B P H H J 5 , U Q }.dXdXL.' ^ m.n.C.C.C.C.W.!.W.^.E.U.!.!.E.E.!.~.J.F D ^ K.*X*XGXxXpXY j Y P K j j j $.-X-X;X-Xq.) E ) =.%.) ) ;.e.:XiX3X,X-X`.|.`.w.=.",
"e.XXe.|.,XoXe.>X;X X|.0.0.e.0.0.#X:X>X+X+X%Xk 3 @ P H N P 4 q <.8X7X9X9X1.2./ M m.S.C.C.C.J.~.I.U.~.~.~.~.Q.!.^.~.A.F ( ' u.9XrXcXHXHX~   , 4 g f f f ` #X-X-X-XXXq.$.) $.%.=.=. XoX,XiX,X:X-XoX-X#X.Xw.",
">.e.w.oXiXoXw.>XXX|.,XiX-X0.Q 0.;.r.{.|.+X>XU 8 G _ / T _ T @.mXbXwXg.g.6.7X'.^ D M.Z.Z.A.A.I.I.~.~.I.U.!.Q.W.~./.A.D F.}.s.wXgXnXnXnX~ z k g J 9 f 8 ` ;X>X;X+XoXoXe.%.) ;.e.e.#X-XpXpX=X|.-XpX3X:X.Xe.",
"E 0.w. XpXoXQ $.0.|.oXoXoXXX0.Q Q ) 0. X;X`.U 8 N K./ / :.@.~ cXcXg.h.g.6.+.R I D B.Z.Z.Z.Z.A.I.I.W.~.~.!.!.Q.Q./.A.D ' R s.g.vXcXvXBXv < x X J 9 G J $.oXXX+X+X>X3XoX%.Q ) %.;..X-XiXiX:X#X#X;XpX;X|.e.",
"! 0.e.oX,X X%.=.|.oX-XoXoXoX{.>.W ) r.|.oX0.L 8 6 _ _ ` W @.t.cXrXg.h.g.6.+.R A D M.Z.Z.Z.Z.A.I.W.~.~.!.!.Q.Q.Q.~.A.D ( R 7Xg.eXnXvXgXO.v < , K f G G :.>X%X+XoXe.e.=.$.q.|.q.%.e.oX,XpXiX,X-X#X-X;XoX].",
"~ Q =.e.`.0.>.0.oX>X>X%X+X%X%XXX) ) =.>.e.&.K 8 P T _ :.@.u.qXd.wXh.6.h.5.2.T S D M.Z.A.Z.C.C.C.W.Q.Q.Q.Q.Q.!.!.~./.N.( I *Xd.d.gXvXnXnX8Xz h 5 f 9 8 9.3XoXy.w.Q $.$.0.:X3X|.=.0.e.oX3XpXiX-X.Xe.oX X;.",
"9.*.r.|.e.|.oXoXoX>X0X,X>X0X0X,X'.:.` Q =.%.j 2 8 T :.Q Y 1.qXtXf.6.5.5.2.R ^ S D m.Z.Z.Z.C.C.C.C.J.J.W.!.!.!.~.C.A.V.( I <.s.d.gXhXvXBXu.< l U K 8 8 ;.:Xw.$.$.Q 0.|.#X3X,X|.q.0.;.0. X:X:XoXe.0.q.;.) ",
"r.$.=.r.0.e.;X-X X-XyXpXpXpXpXiX3XOX9.) @.) k 8 X 8 3   x 1.j.f.f.h.5.1.R B ^ S D D m.M.B.B.Z.Z.C.C.C.A.~./.I.A.m.m.N.( V U 2.s.BXvXBXnXu.v , = j 8 8 %.OX%.) %.0.#X3X3X3X#X`.|.0.=.%.0..XoXe.=.=.$.$.;.",
"! Y ~ ) $.0.oXoX|.+X,XpXpXpXyXyX3X:XOX$.E T q j L K 3 x qXnXcXl.6.4.+. .w N ^ ^ S S D D m.m.B.Z.Z.Z.B.V.G.D.m.D D S ^ ( B r a ..i.i.vXBXnXnX$.l h h h ) '.%.:.'.=X,X,X:X,X#X|.|.0.=.%.;.e.e.=.! Q W *.oX",
"Q ! *.r.w.|.;X,XoX%X>XyXpXyX>X-X$X].`.` ) W j w o 3 ! y.bXnXgXl.4.3.o.u = N I I V V A A S D D N.N.N.D D ^ S A A A @ N Y U p ..u.rXjXvXnXnXHXO.% 5 h h ) q.9.`.#X<X:X#XoX:X-X.X Xe.;.$.$.=.=.) E $.%.e.:X",
"e.|.-X>X-XoX-X>X>X-X-X>X,X>X%XoX'.9.*.) 0.q.Y 5 K k ,.qXnXnXvXl.g.4.o.a > J I B B w 8 9 A A I C C C V V N 7 8 j w > k U u i 1.tXvXBXBXnXnXnXO.l < h q W q.'.$X:X:X;XoXoX-X#X.X#X.X0.) E E Q Q Q w..X-X-X",
"%X%X0X,XoX|.XX.X|.oX-Xe.oX|.`.Q T *.=X=X#X0.L q 0 x O.tXbXrXwXf.f.9X+.; e 0 R e p u t ; p p r 1 r r r p p u < < R ~  . .u u 5.tXgXjXvXBXvXBXnXqXl , 5 E XX3X&X4X>X-X-X3XiXiX:X-Xe.`.) T ! Y E oX:X-XoX.X",
">X;XyXyX-XXX{.>.0.|.#Xq.9.=.*.W *.r.=X=X#Xq.U q 0 x O.tXrXrXf.f.d.7X+.p < - R x p a i y y y t t t t t y y i a c  . . . .u u 1.7XrXgXvXBXBXHXnXqXl 5 h Y 0.#X&X3X#X.X.X#X#XoXoX#X#X;X0.E W T E q.-X-X#XoX",
"yX;X>X,X%XXXe.%.0.e.0.%.Q =.9.=.OXoX-XOX#Xr.Y q 0 x O.u.7X7Xf.d.d.1...x e 0 R p u a [ i y t t t ; t t t i } .. ... . ...c u +.7XtXeXcXcXcXnXnXqX< h j Y $.0..X>X#XoX.XOXoXoX:X3X;X,Xq.E E W W %.`. XoX#X",
"yX%XoXoX|.|.{.0.`.0.T E E |.#X-X3X<X<XoX#X`.Y 5 0 e c  .O.1.s.s.s.X.p p e U U < u a [ ] y y t t s t t t y X.o.......} O.} c +.7Xd.wXrXtXtXsXsX8X< q j W ;.$.9.OX<X-X-X:X:X:X,XiX:X:Xe.%.9.q.e..X=.9.e.|.",
"-XXXXXXX`.{..X`.0.$.U Y ~ `.#X3XiX,X,X-X<XOXT 5 q e e < a  ...+...t & r > K e ; a a [ ] i y t ; s ; ; s y X.o....... .O. .c  .+.o.d.9X7X7X8X@X<.< 0 q ;.$X` ` 9.=XoXoX;X,X;XoXOX.Xq.=.0.|. XoX,X;.$.) $.",
"{.{.+X%X|.{.`.0.W ! E Q E $.9. X-X%X>X:X3X#XT 8 w q e < < u u u u & - - = q e c a [ [ ] ] i t ; ; ; ; t y } o...} .. ... .u < u y o.5.s.8Xu.X.x e q 5 '.3X9.:.` =.=.q.oX;X-X|.e.q.%.%.`.oXOXoX>X X%.T Y ",
">.0.XX%X|.w.>.@.E Q 0.q.0.) %.=.0.r.OXoX:X.XY 8 j w q e 0 ; & & ; - - 0 2 U 0 R a [ ] ] y y t ; U e ; t i [ } o.} o.}  . .< & & $ i  .X.<.X.p < e k 3 0.iXOX].*.Q ) ;.|.oX Xe.q. X`..X,X3X,X,X:X-X0.W E ",
"&.&.w.|.e.0.&.W =.%.|..X:Xq.0.=.E $.e.|.oXr.L 4 j 5 3 w e 0 - - 0 0 - 2 3 Y - a a [ ] y * t t ; U e ; t y ] [ } ..+.} c c e < < ; u ; ; p p 0 U q U 5 %.4X-X:X9.*.;.q.`.e.;.$.$.`.|.-X,X:X,X-X`.-Xe.%.=.",
"#X`.Y @.>.$.`.;.XX{.oXyX,Xe.0.|.=.$.%.`.].r.K j j 8 8 B w 3 1 2 q = 8 8 5 K e u a y ] ] * t u & U q - p t y y ] } o.i u x l h - > - - 3 q q q q q q j :.:X-XoXoX.Xe.%.=.|.;.W $.|.|.oX<X-X X|.oX#X#X`.oX",
"oX.XE Q $.$.%X#X-X-X>X,X%X{.{.|.-X|.=.0.0.0.K 8 f 8 8 B 8 3 2 2 3 2 8 4 8 K e u y * * * * u a e k L e c t y * ] ] i i c R 0 , 3 4 X O 4 f f w w j w w %.-X>XyXiXiXoX=.%.w.;.$.0.e.oX,XiX<X#X-X3XoX-X#X-X",
"#XoX) E Y E XX:X,X3X,X%XoX%X%X+XiX>X`.=.) ` f 8 j 8 8 J 8 6 2 2 2 3 8 2 8 e e X.} ] { ] [ i < k : j q p t i ] ] ] * c x < - > P + O O + g G G f j w q %.>X,XpXaXaX:X0.%.=.%.=..X|.oX:X-X-X-X,X3X3XiXpX,X",
"oX.X%.$.W T `.,X,X:X#XoX-X0XyX0X>XiX-X0.E E 8 j j 8 8 B 8 6 2 2 9 8 4 X 3 0 p u.d.d.5.5.s.X.p U J P q c  .1.5.1.d.s.qXO.< q 5 X + O O d G G G B w j k =.>X-X,XyX3X#Xe.=.$.Q =..X#X-XoX|.oX,X,XoX-X-X,Xq.",
"].r.9..X`.*.`.3X>XXX{.%XiXpXyXyX-X>X.X;.W ) j k j 8 8 f 8 4 2 2 3 2 2 2 5 - c dX9X9Xf.d.s. .- 3 4 g = < c 1.d.d.bXcXnXO.- : w @ + O O 4 f f G B w e k &.%XoXoXoX.Xq.;.0.;.=.=.=..X-X;XoX=X,X<X.X,X-X-X=.",
"=.*.r.:X-X0.;.|.%X{.{.>XpXyX>X-X%X|.%.$.$.=.j , j 8 8 f 8 4 2 2 2 O 9 5 8 0  .tX9X9X9X7X1.R q L f Y k x c 1.d.tXnXcXmXt.Y X B J 4 O O 9 j w B w B w q @.oX X XOXe.$.$.e.oXoX0.T %.|.,X:X-X-X#X.Xq.=.%.W ",
"! *.OX<X=Xe.%.%.w.e. X%X&X%X Xy.e.=.) =.0.0.l , h 8 q j 8 4 2 2 O O f 4 w R 1.tX9X9X9Xd...< > f 4 J 0 < ;  .1.7XnXnXKXGXaXL 3 X 3 : : 5 q e e e B w q %.-XoX].e.q.$.0.-X3X,X|.W W =.e.`.].].e.q.%.$.) q.",
"E 0.,X3X:X-X`.0.Q q.XX|.`.{.w.&.$.%.0.#XoX`.L k h 8 q j 8 4 2 2 4 4 f X 8 ,.uXsXsXsXbXdXO.q 8 g G J 3 j x O.1.8X0X0X0X%X%X3 5 5 3 : : 5 e e e e e e k ,.yX-X].9.;.=.oXpX3X>X#X0.$.Q E ) >.'.0.%.E E E .X",
" X%X0XiX>XoXoXoX0.! 0.0.=.r.Q ! ! 0.oX-X,XyXY 8 w 8 w w w 3 2 2 : 4 3 X B '.LXPXPXPXPXPXLXI d g g G 8 J P SX&X7 N 7 1 B 0 - q 3 3 : : 5 w w q q q j j q.iXq.) e.oX,X0X0XyX>XoXXX#X0.W T ) :.) Y Y W :XXX",
";X;X>X;X+X+X-X,X|.=.$.$.$.=.! Y Q 0.oX-X3X3XU w w 8 w w w 3 2 2 3 5 w 3 B K.SXLXLXLXPXLXIXI + + g G G H H 5X[.N SXSXSXSX4XU 0 - 3 : : 5 j j w w q j w %.-X{.w.{.0X0X%X+X0XiX,X:X-Xq.) E W _ ` ;.0.w.yXoX",
">X;X%X X|. X+X-XoX|.9.$.! ! $.E e. X:X3X3X-Xk 8 w 8 w w w 3 2 2 0 - 3 B R K.2XSXSXLXPXPXLX' B B 8 g 9 P I 5X2X' SXSXFXSXaXq - q 3 = : 5 j j w w q w 8 W `.#X>X#XyXiX-XXX;X,XyXiX:Xe.$.W Y Y ` $X:X#X3XoX",
">X>X-XoX XXX X|.oX,XoX0.~ T ].].-X-X>X3X>XoXw q w 8 w w w 3 2 2 B - e / K.L.L.K.2XSXLXFXSX/ 1 B f 5 8 H I 2X5X2XK.L.[.}.$XJ = 5 3 = : 5 j j w w j 5 q W q.XXiX>X%XiXiX>X%XoX%XyX:X`.$.E Y T %.`.#XoX%XXX",
"0XyX0X>X-X>X%XXXoX,XoX0.~ T OX-X X XoX#X#X.Xj k w 8 w w w 3 2 2 e e #.pXLXLXSXSXSX2X2X2X2X/ 1 B k 5 8 G P K.[.2XSXSX' / / T 3 B 3 = : 5 j j w w k 3 q @.q.q.#X#X+XyXpX>X-XXX.X-X#X`.%.W ) 9.q.:.|.XXXX-X",
";X,X,X-X;X,X>X-XXX|.0.=.Q ) e.`.|. XoX.X.X|.j k w 5 w w w 3 2 2 o K $XLXPXPXPXPXSXK./ / :.T 7 B w 8 j J P / / ' FXSX/ I B / N X 3 = : 5 j j w w k 5 q &.|.=.:.0.;X>X%XoX>X>XoX|.{.e.;.=.`.:X$X=.|.%XXXyX",
"y.oX-XoX+X;X-XoX|.$.$.0.0.e.0.=.{.oX-XoX.XXXk j w 5 w w w 3 2 2 @ P [.5X5X2X5X5X[.H N N N B + 7 5 5 k w P I B I 2XSX2X5X5X5XK.P 3 2 : 5 j j w w j j q &.-Xq.@.$.|.|.{.|.3XiX%X|.q.w.`..X>X3X-X'.oX-Xe.,X",
">.|.%X%XoX-XoXe.0.E =.y.oX-X0.>.=.|.%XXXXX#XL j w 5 w w w 3 2 2 + + T F.F.' ' ' / n I I @ N N J j q k 3 B B 1 N ' K.F.K.K.' / 2 3 2 : 5 j j w w 5 k 8 %.yXXX%.$.@.0.e.XX3XyX%XXX0.e.oX,X3X:X#XoX#X#X&.oX",
"E w.%XoX-X;X X%.@.0. XoXoXXX|.e.Q =.0.`.`..XY 8 w j w w J 3 X 2 + + n n n n n n n n + + + + + 8 w q q w B B N 1 N N N N N N N 6 3 2 : 5 j j w w k j k ;.:X-XXX0.W @.) XX>X-X=.0.0.-X3XoX{.#X%X|.oX=.Q %.",
"$.Q $.0. X|.>.$.e.oX;X-XoXoXoX+Xw.$.! q.|.e.k 5 w j w w J 3 X 2 + + + n N N N N N N 6 6 2 X 6 w w q q q w w 7 1 N N N N N N 6 6 3 2 : 5 j j w w j 3 q ;.%X|..X{.;.$.) oX-XXX%.;.#X>X3X:X%X-X>X,X#X0.Q Q ",
"e.$.) e.oXw.0.e.-X,X0X-X X X%X>XoXw.%.0.q.>.j q w j w w J 3 X 2 3 6 6 6 N N 6 6 w 7 7 7 1 1 0 e q q q q w 8 7 1 6 6 6 6 6 6 6 2 3 = = 5 j j w w k 3 j ,.%X`.oX3X:X;.) .X{.e.q..XaX3X>X>X-XXXoX>X>X.X>.$.",
"e.0.0.e.w.=.w.oX>X>X-X|.e.y. XoXoX,X-Xe.) $.j q w j w w J 3 X 2 7 7 7 7 7 7 w 0 0 0 0 0 r - 0 e q q q w w 8 3 1 6 6 6 9 6 4 4 4 2 = = 3 w j w w k 8 j ;.#X.X3XaXpX].0.q.%.;.#XiXpX>XoX%X+X X X%XXX|.w.%.",
"OX=XOX=.$.q.oX-X>X-X Xy.y. X X{.oXiXiX|.Q Q w q w j w w J 3 X 2 7 7 0 0 0 0 0 0 0 3 0 0 - - 0 e q q w w w 5 4 2 8 3 3 3 4 4 4 4 2 = = 3 w j w w 5 q w ) .X:XpXpXpX4X=X0.W %.-X3X-X%XoX+X;X0X0X>X,XyXyX,X",
"<X<Xe.! Q |.;XoX,X-XXX X+X;X+X|.,X>X%XoX0.%.j k w j w w J 3 X 2 7 2 3 7 7 3 3 3 2 > > > - - > j w q w w w 5 2 : 3 3 3 3 4 4 4 3 : = = 3 w j w w 5 j k ) .X,XaX3X:X3XpXq.$.&..X`.XX%X-X-X,XpXiX%X-X-X:X>X",
"e.r.*.! ! *.0.w.>X-X+X+X;X>X%X X,X;XoXXXw.>.K j w j w w J 3 X 2 + + + 4 4 4 4 O O O O O O O 4 g f g j 8 f 5 , : > > > : : : : : : X = 3 w w w w j j K %.#X:XyX4X$X:X4X'..X'.`.;.XX-X>X>X0X0X;X|.yX%XXX#X",
"=.$.9.].0.Q $.|.oXoXoXoX%X;X+X X X,X-Xe.%.>.L 3 w j w w J 3 X 2 @ O O O O O O O O O O O O O O g f g f f f 3 2 : , : : : : : , : : X = 3 w w w j w 5 j ;.oX|.#X:XOXOX].9.3X-X.Xw.|.oX-X,X,X,X%X X3X|.;.0.",
"E $.w.OX Xw.=.&.|.0.-XXXXXe. XoXXX`.`.e.>.,.w k w w w w w w w w 8 8 8 8 8 f 8 f 8 f 8 g 8 f 8 8 f j j j j j w w j j j h h h h j w w w w w w w w q j q ) oX.X.X|.'.;.'.iX,X>XpXoXoX{.w.|.:X3X=X`.3X'.%.` ",
"0.e.oX-X%X Xe.e.=.$.oXoX-X|.{.e.{.&.&.q.|.#XL q w w w w w w w w w w w w w w w w w w w w w w w w j j j j j j w w j j j j j j j j w w w w w w w w q j q ) .X`.w.0.=.].#X>X-X>XpXoX>.%.$.0.=X4X$X'.;.` :.].",
" XoX-X-XoXXX|.|.@.E  X%X,XoX{.w.;.Q @.w.#X-XU 5 w w w w w w w w w w w w w w w w w w w w w w w w j j j j j j j w j j j j j j w w w w w w w w w w w j q ! `.>.%.) W :XiX#XXX-X0XoXw.$.E ) q.].9.) W W r.4X",
"oXoX+XoX|.{.{.y.%.E e.oX,X%X X{.) Q >.|..X.XK j w w w w w w w w w w w w w w w w w w w w w w w w j j j j j j j j j j j j j j j w w w w w w w w w w j 8 W q.%.! T T 3XpXoXXX+X>XoX+X0.E T W _ _ T W ) '.4X"
};
