/* XPM */
static char *d5b00ec13cd24fd4a927e9ebfa950f78iPju6BKbV6dqzNcr[] = {
/* columns rows colors chars-per-pixel */
"32 32 24 1 ",
"  c #10162E",
". c black",
"X c #6E2749",
"o c #913C51",
"O c #310D35",
"+ c #571748",
"@ c #8C4B63",
"# c #12274D",
"$ c #1C1859",
"% c #C16A7D",
"& c #9C8C9C",
"* c #F2E9F2",
"= c #5078A1",
"- c #E5959F",
"; c #230726",
": c #2A6957",
"> c gray56",
", c #43153B",
"< c #3B804D",
"1 c #676767",
"2 c #222028",
"3 c #343336",
"4 c gray45",
"5 c #AEAEAE",
/* pixels */
"                                ",
"                                ",
"                                ",
"                                ",
"              ....              ",
"             .XooX.             ",
"             ......             ",
"            .OXOXOX.            ",
"           .OX+OX+Xo.           ",
"           .+O++OO+X.           ",
"           .O+oo+oO+.           ",
"          ..+++++X+o.           ",
"          .XX+OO@XOX..#         ",
"          #.OO$%%$&+X.#         ",
"          #.X*=--=*O.##         ",
"          #.X%----%X.##         ",
"          ##..;:::..###         ",
"          #.>:,<<<,>.##         ",
"          .>>--<<<-->.#         ",
"          .11%%<<<%%1.          ",
"    #######..:<<<<:..           ",
"    ########.223332.            ",
"    ########.23..23.            ",
"    #######.%-.#.2-.            ",
"    #######.23..23.             ",
"    ######.44.#.23.             ",
"    ######.55.#.445.            ",
"                                ",
"                                ",
"                                ",
"                                ",
"                                "
};
