/* XPM */
static char *_c9625d969654991c32e74205e9c6fa7O3uqdWu7RJTShCU5[] = {
/* columns rows colors chars-per-pixel */
"32 32 3 1 ",
"  c #1F324D",
". c #5A5875",
"X c #8294AF",
/* pixels */
"   ...........XX.       .....   ",
" ...XXXXXXXX.XXXX.XXXXXX....XXXX",
" ..XXXXXXXXXX.XX.XXXXXXXXXX...XX",
" ..XXXXXXXXXXX. XXXXXXXXXXXX .X.",
"..XXXXXXXXXXXXX XXXXXXXXXXXX XX.",
".XXXXXXXXXXXXXX.XXXXXXXXXXX.XXXX",
".XXXXXXXXXXXXXX.XXXXXXXXXX .XXXX",
".XXXXXXXXXXXXXX..XXXXXXXX ..XXXX",
"..XXXXXXXXXXXXX...XXXXXX XXX XX.",
"....XXXXXXXXXXX....XXXX XXXXX ..",
"... .XXXXXXXXXX XXXX...XXXXXXX .",
".XX. .XXXXXXXX XXXXXX.XXXXXXXXX ",
"XXXX. ....... XXXXXXXXXXXXXXXXXX",
"XXXXX...XXXX..XXXXXXXXXXXXXXXXXX",
".XXXX...XXXXX..XXXXXXX.XXXXXXXXX",
" .XX...XXXXXXX..XXXXX. .XXXXXXXX",
" ......XXXXXXX ..XXX.. ..XXXXXXX",
"     ...XXXXX. ....... ...XXXXX.",
"  ... ........  .....  .........",
" ....  ......  ...     ........ ",
"....... .........   ...  .....  ",
"........    ...... .....   ..   ",
"......................... ..... ",
" ........................ ......",
"  ...... .......................",
"   ...   ....... ...............",
" ............... ............   ",
" ..............   ............. ",
" ...........  ..   ..... .......",
" .... ...... .........  ........",
"..... .....  .......... ........",
"  ..   ...    ........   ......."
};
